(1_3MM)
(T1 D=3.175 CR=0. - ZMIN=-0.5 - FLAT END MILL)
G90 G94 G91.1 G40 G49 G17
G21
(-ATTENTION- PROPERTY SAFE RETRACTS IS SET TO CLEARANCE HEIGHT.)
(ENSURE THE CLEARANCE HEIGHT WILL CLEAR THE PART AND OR FIXTURES.)
(RAISE THE Z-AXIS TO A SAFE HEIGHT BEFORE STARTING THE PROGRAM.)

(DRILL1 2)
M0
(MANUAL TOOL CHANGE TO T1)
S18000 M3
G17 G90 G94
G54
G0 X1212.036 Y-11.06
G43 Z40. H1
G0 Z30.
G98 G81 X1212.036 Y-11.06 Z13. R30. F1000.
X45.722 Y-7.874
X63.5 Y676.57
X252.5
X1030.341 Y864.031
X-3.89 Y1204.082
X969.262 Y1208.157
X890.184 Y1534.466
X149.288 Y1676.271
X1063.857 Y1872.251
X831.231 Y2219.595
X17.042 Y2407.608
X1199.29 Y2412.388
G80
Z40.
M0

(2D POCKET16 2)
S18000 M3
M8
G0 X1109.704 Y431.01
Z30.
Z20.
G1 Z10.486 F1000.
X1109.697 Y431.012 Z10.422 F1800.
X1109.676 Y431.015 Z10.362
X1109.642 Y431.02 Z10.308
X1109.598 Y431.027 Z10.262
X1109.544 Y431.036 Z10.228
X1109.485 Y431.045 Z10.207
X1109.422 Y431.055 Z10.2
X1108.971 Y431.127
X1108.921 Y431.13
X1108.14
G2 X1106.902 Y432.368 I0. J1.238
G1 Y846.868
Y848.341
G3 X1106.701 Y848.541 I-0.2 J0.
G1 X1102.85 Y848.505
G3 X1102.852 Y848.106 I0.002 J-0.2
G1 X1103.64
G2 X1104.877 Y846.868 I0. J-1.238
G1 Y432.368
Y430.895
X1104.881 Y430.845
X1104.924 Y430.576
X1104.935 Y430.506 Z10.208
X1104.946 Y430.44 Z10.231
X1104.955 Y430.38 Z10.269
X1104.963 Y430.331 Z10.32
X1104.969 Y430.293 Z10.38
X1104.973 Y430.27 Z10.447
X1104.974 Y430.262 Z10.517
G0 Z30.
X1083.84 Y418.587
Z20.
G1 Z10.486 F1000.
X1083.838 Y418.58 Z10.422 F1800.
X1083.835 Y418.559 Z10.362
X1083.83 Y418.525 Z10.308
X1083.823 Y418.48 Z10.262
X1083.814 Y418.427 Z10.228
X1083.805 Y418.367 Z10.207
X1083.795 Y418.305 Z10.2
X1083.751 Y418.03
X1083.748 Y417.98
Y2.
G2 X1082.51 Y0.762 I-1.238 J0.
G1 X1081.73
G3 X1081.728 Y0.363 I0. J-0.2
G1 X1085.57 Y0.32
G3 X1085.772 Y0.52 I0.002 J0.2
G1 Y416.5
G2 X1087.01 Y417.737 I1.238 J0.
G1 X1087.79
X1087.839 Y417.741
X1088.109 Y417.784
X1088.179 Y417.795 Z10.208
X1088.245 Y417.806 Z10.231
X1088.305 Y417.815 Z10.269
X1088.354 Y417.823 Z10.32
X1088.392 Y417.829 Z10.38
X1088.415 Y417.833 Z10.447
X1088.423 Y417.834 Z10.517
G0 Z30.
X297.175 Y497.885
Z20.
G1 Z10.517 F1000.
G19 G2 Y497.567 Z10.2 J-0.318 K0. F1800.
G1 Y497.268
Y496.174
G17 G3 X297.494 Y495.855 I0.319 J0.
G1 X307.234
G3 X307.553 Y496.174 I0. J0.319
G1 Y497.266
G3 X307.353 Y497.466 I-0.2 J0.
G1 X295.57 Y497.47
G3 X295.37 Y497.27 I0. J-0.2
G1 Y494.369
G3 X295.689 Y494.05 I0.319 J0.
G1 X309.039
G3 X309.358 Y494.369 I0. J0.319
G1 Y497.281
G3 X309.158 Y497.481 I-0.2 J0.
G1 X293.765 Y497.473
G3 X293.565 Y497.273 I0. J-0.2
G1 Y492.564
G3 X293.884 Y492.245 I0.319 J0.
G1 X310.844
G3 X311.163 Y492.564 I0. J0.319
G1 Y497.278
G3 X310.963 Y497.478 I-0.2 J0.
G1 X291.96 Y497.476
G3 X291.76 Y497.276 I0. J-0.2
G1 Y490.759
G3 X292.079 Y490.44 I0.319 J0.
G1 X312.649
G3 X312.968 Y490.759 I0. J0.319
G1 Y497.275
G3 X312.768 Y497.475 I-0.2 J0.
G1 X290.155 Y497.479
G3 X289.955 Y497.279 I0. J-0.2
G1 Y488.954
G3 X290.274 Y488.635 I0.319 J0.
G1 X314.454
G3 X314.773 Y488.954 I0. J0.319
G1 Y497.272
G3 X314.573 Y497.472 I-0.2 J0.
G1 X288.35 Y497.481
G3 X288.15 Y497.281 I0. J-0.2
G1 Y487.149
G3 X288.469 Y486.83 I0.319 J0.
G1 X316.259
G3 X316.578 Y487.149 I0. J0.319
G1 Y497.269
G3 X316.378 Y497.469 I-0.2 J0.
G1 X286.545 Y497.467
G3 X286.345 Y497.267 I0. J-0.2
G1 Y485.344
G3 X286.664 Y485.025 I0.319 J0.
G1 X318.064
G3 X318.383 Y485.344 I0. J0.319
G1 Y497.267
G3 X318.183 Y497.467 I-0.2 J0.
G1 X284.74 Y497.47
G3 X284.54 Y497.27 I0. J-0.2
G1 Y483.539
G3 X284.859 Y483.22 I0.319 J0.
G1 X319.876 Y483.216
G3 X320.188 Y483.519 I0.009 J0.303
G1 Y497.278
G3 X319.988 Y497.478 I-0.2 J0.
G1 X282.935 Y497.473
G3 X282.735 Y497.272 I0. J-0.2
G1 Y481.734
G3 X283.054 Y481.415 I0.319 J0.
G1 X319.614 Y481.46
G2 X320.674 Y481.352 I0. J-5.274
X321.702 Y481.077 I-1.805 J-8.802
G3 X321.993 Y481.287 I0.07 J0.21
G1 Y497.281
G3 X321.793 Y497.481 I-0.2 J0.
G1 X281.13 Y497.464
G3 X280.93 Y497.264 I0. J-0.2
G1 Y479.923
G3 X281.243 Y479.61 I0.313 J0.
G1 X319.614 Y479.654
G2 X321.85 Y479.084 I0. J-4.672
X323.567 Y477.544 I-2.4 J-4.405
G1 X323.595 Y477.515
X323.63 Y477.497
X323.67 Y477.49
X323.709 Y477.496
X323.745 Y477.514
X323.774 Y477.542
X323.792 Y477.577
X323.798 Y477.617
Y497.268
Y497.28
G19 G3 Y497.598 Z10.517 J0. K0.318
G1 Z15.635
X279.162 Y497.607
Z10.517
G2 Y497.289 Z10.2 J-0.318 K0.
G1 Y478.155
G17 G3 X279.475 Y477.842 I0.313 J0.
G1 X319.614 Y477.887
G2 X322.707 Y474.794 I0. J-3.092
G1 Y321.544
G2 X322.183 Y319.822 I-3.092 J0.
G3 X322.92 Y319.343 I0.524 J0.
G2 X323.468 Y318.656 I0.185 J-0.415
X321.656 Y317.183 I-3.854 J2.888
G3 Y316.905 I0.065 J-0.139
G2 X323.567 Y315.294 I-2.042 J-4.361
G1 X323.595 Y315.265
X323.63 Y315.247
X323.67 Y315.24
X323.709 Y315.246
X323.745 Y315.264
X323.774 Y315.292
X323.792 Y315.327
X323.798 Y315.367
Y318.721
X323.792 Y318.761
X323.774 Y318.796
X323.745 Y318.824
X323.709 Y318.842
X323.67 Y318.848
X323.63 Y318.841
X323.595 Y318.823
X323.567 Y318.794
X323.468 Y318.656
X323.451 Y318.626 Z10.207
X323.439 Y318.593 Z10.214
X323.435 Y318.563 Z10.234
X323.436 Y318.533 Z10.254
X323.445 Y318.495 Z10.313
X323.45 Y318.482 Z10.383
G0 Z20.
X279.162 Y497.881
G1 Z10.517 F1000.
G19 G2 Y497.564 Z10.2 J-0.317 K0. F1800.
G1 Y497.264
Y478.155
G17 G3 X279.475 Y477.842 I0.313 J0.
G1 X319.614 Y477.887
G2 X322.707 Y474.794 I0. J-3.092
G1 Y321.544
G2 X319.614 Y318.452 I-3.092 J0.
G1 X16.614 Y318.455
G2 X15.957 Y318.546 I0. J2.402
X15.335 Y318.777 I1.165 J4.097
G3 X15.062 Y318.602 I-0.081 J-0.174
G1 Y315.905
G3 X15.375 Y315.592 I0.313 J0.
G1 X319.614 Y315.637
G2 X322.707 Y312.544 I0. J-3.092
G1 X322.662 Y197.155
G3 X322.975 Y196.842 I0.313 J0.
G1 X325.253
G3 X325.566 Y197.155 I0. J0.313
G1 X325.522 Y495.794
Y497.267
Y497.279
Y497.35 Z10.208
Y497.417 Z10.231
Y497.477 Z10.269
Y497.528 Z10.32
Y497.565 Z10.38
Y497.589 Z10.447
Y497.597 Z10.517
G0 Z20.
X33.395 Y497.884
G1 Z10.517 F1000.
Y497.876 Z10.447 F1800.
Y497.853 Z10.38
Y497.815 Z10.32
Y497.765 Z10.269
Y497.705 Z10.231
Y497.638 Z10.208
Y497.567 Z10.2
Y497.277
Y494.294
G2 X33.327 Y493.061 I-11.225 J0.
X33.169 Y491.837 I-32.899 J3.635
G3 X33.433 Y491.53 I0.264 J-0.039
G1 X34.058
G3 X34.378 Y491.85 I0. J0.319
G1 Y497.274
G3 X34.178 Y497.474 I-0.2 J0.
G1 X32.542 Y497.473
G3 X32.342 Y497.273 I0. J-0.2
G1 Y494.294
G2 X32.22 Y492.523 I-12.845 J0.
X31.898 Y490.778 I-20.022 J2.787
G3 X32.137 Y490.478 I0.239 J-0.055
G1 X35.111
G3 X35.431 Y490.797 I0. J0.319
G1 Y497.278
G3 X35.23 Y497.478 I-0.2 J0.
G1 X30.737 Y497.476
G3 X30.537 Y497.276 I0. J-0.2
G1 X30.538 Y494.294
G2 X30.246 Y491.572 I-12.85 J0.
X29.426 Y488.959 I-14.797 J3.208
G3 X29.617 Y488.672 I0.191 J-0.08
G1 X36.916
G3 X37.236 Y488.992 I0. J0.319
G1 Y497.275
G3 X37.036 Y497.475 I-0.2 J0.
G1 X28.932 Y497.479
G3 X28.732 Y497.279 I0. J-0.2
G1 X28.733 Y494.294
G2 X28.107 Y490.522 I-11.683 J0.
X26.335 Y487.134 I-11.868 J4.049
G3 X26.47 Y486.867 I0.135 J-0.099
G1 X38.721
G3 X39.041 Y487.187 I0. J0.319
G1 Y497.272
G3 X38.841 Y497.472 I-0.2 J0.
G1 X27.127 Y497.481
G3 X26.927 Y497.281 I0. J-0.2
G1 Y494.294
G2 X25.734 Y489.526 I-10.119 J0.
X22.464 Y485.855 I-9.234 J4.933
G3 X22.282 Y485.508 I0.241 J-0.347
G1 Y485.382
G3 X22.602 Y485.063 I0.319 J0.
G1 X40.526
G3 X40.846 Y485.382 I0. J0.319
G1 Y497.27
G3 X40.645 Y497.47 I-0.2 J0.
G1 X25.322 Y497.467
G3 X25.122 Y497.267 I0. J-0.2
G1 Y494.294
G2 X23.958 Y490.042 I-8.344 J0.
X20.817 Y486.948 I-7.428 J4.399
G3 X20.478 Y486.363 I0.335 J-0.585
G1 Y483.577
G3 X20.797 Y483.258 I0.319 J0.
G1 X42.331
G3 X42.651 Y483.577 I0. J0.319
G1 Y497.267
G3 X42.451 Y497.467 I-0.2 J0.
G1 X23.517 Y497.47
G3 X23.317 Y497.27 I0. J-0.2
G1 Y494.294
G2 X22.125 Y490.517 I-6.577 J0.
X19.004 Y488.079 I-5.558 J3.898
G3 X18.673 Y487.596 I0.186 J-0.483
G1 Y481.772
G3 X18.992 Y481.453 I0.319 J0.
G1 X44.136
G3 X44.456 Y481.772 I0. J0.319
G1 Y497.281
G3 X44.255 Y497.481 I-0.2 J0.
G1 X21.712 Y497.472
G3 X21.512 Y497.272 I0. J-0.2
G1 X21.513 Y494.294
G2 X20.265 Y491.062 I-4.81 J0.
X17.185 Y489.474 I-3.661 J3.322
G3 X16.868 Y489.117 I0.042 J-0.357
G1 Y479.967
G3 X17.187 Y479.647 I0.319 J0.
G1 X45.941
G3 X46.261 Y479.967 I0. J0.319
G1 Y497.278
G3 X46.06 Y497.478 I-0.2 J0.
G1 X19.906 Y497.464
G3 X19.706 Y497.264 I0. J-0.2
G1 Y494.294
G2 X16.614 Y491.207 I-3.087 J0.
X15.995 Y491.226 I0. J9.919
G3 X15.375 Y491.246 I-0.619 J-9.899
X15.062 Y490.933 I0. J-0.313
G1 Y477.736
G3 X15.335 Y477.561 I0.192 J0.
G2 X15.957 Y477.792 I1.787 J-3.866
X16.614 Y477.883 I0.657 J-2.31
G1 X47.753 Y477.842
G3 X48.066 Y478.155 I0. J0.313
G1 Y497.269
G3 X47.866 Y497.469 I-0.2 J0.
G1 X18.052 Y497.474
G3 X17.851 Y497.274 I0. J-0.2
G1 Y494.294
G2 X16.614 Y493.056 I-1.237 J0.
G1 X14.313
G2 X13.437 Y493.419 I0. J1.238
G3 X12.889 I-0.274 J-0.274
Y492.871 I0.274 J-0.274
G2 X13.252 Y491.996 I-0.875 J-0.875
G1 Y314.843
G2 X12.889 Y313.968 I-1.238 J0.
G3 X13.438 Y313.419 I0.274 J-0.274
G2 X14.313 Y313.781 I0.875 J-0.875
G1 X319.614
G2 X320.852 Y312.544 I0. J-1.237
G1 Y196.093
G2 X320.489 Y195.218 I-1.237 J0.
G3 Y194.669 I0.274 J-0.275
X321.038 I0.274 J0.274
G2 X321.913 Y195.031 I0.875 J-0.875
G1 X326.315
G2 X327.19 Y194.669 I0. J-1.237
G3 X327.739 I0.275 J0.274
Y195.218 I-0.274 J0.274
G2 X327.376 Y196.093 I0.875 J0.875
G1 Y495.794
Y497.267
X327.373 Y497.317
X327.33 Y497.586
X327.319 Y497.656 Z10.208
X327.308 Y497.722 Z10.231
X327.299 Y497.782 Z10.269
X327.291 Y497.831 Z10.32
X327.285 Y497.869 Z10.38
X327.281 Y497.892 Z10.447
X327.28 Y497.9 Z10.517
X277.445 Y497.89
Z10.486 F1000.
X277.444 Y497.883 Z10.422 F1800.
X277.441 Y497.862 Z10.362
X277.435 Y497.829 Z10.308
X277.428 Y497.784 Z10.262
X277.42 Y497.73 Z10.228
X277.41 Y497.671 Z10.207
X277.4 Y497.608 Z10.2
X277.355 Y497.324
X277.352 Y497.274
Y477.093
G2 X276.989 Y476.218 I-1.237 J0.
G3 X277.538 Y475.669 I0.275 J-0.274
G2 X278.413 Y476.031 I0.875 J-0.875
G1 X319.614
G2 X320.852 Y474.794 I0. J-1.237
G1 Y321.544
G2 X319.614 Y320.306 I-1.237 J0.
G1 X16.614
G2 X15.377 Y321.544 I0. J1.238
G1 Y474.794
G2 X16.614 Y476.031 I1.238 J0.
G1 X48.815
G2 X49.69 Y475.669 I0. J-1.237
G3 X50.239 Y476.218 I0.274 J0.274
G2 X49.876 Y477.093 I0.875 J0.875
G1 Y495.794
Y497.267
X49.873 Y497.317
X49.83 Y497.586
X49.819 Y497.656 Z10.208
X49.808 Y497.722 Z10.231
X49.799 Y497.782 Z10.269
X49.791 Y497.831 Z10.32
X49.785 Y497.869 Z10.38
X49.781 Y497.892 Z10.447
X49.78 Y497.9 Z10.517
G0 Z30.
X445.201 Y2405.407
Z20.
G1 Z10.517 F1000.
Y2405.399 Z10.447 F1800.
Y2405.376 Z10.38
Y2405.338 Z10.32
Y2405.288 Z10.269
Y2405.228 Z10.231
Y2405.16 Z10.208
Y2405.09 Z10.2
Y2404.8
X445.212 Y2243.32
G2 X445.121 Y2242.663 I-2.402 J0.
X444.89 Y2242.041 I-4.097 J1.165
G3 X445.065 Y2241.768 I0.175 J-0.081
G1 X447.762
G3 X448.075 Y2242.081 I0. J0.313
G1 Y2404.8
G3 X447.874 Y2405. I-0.2 J0.
G1 X443.56 Y2404.992
G3 X443.361 Y2404.792 I0. J-0.2
G1 Y2243.32
G2 X442.123 Y2242.083 I-1.238 J0.
G1 X40.422
G2 X39.547 Y2242.445 I0. J1.238
G3 X38.998 Y2242.444 I-0.275 J-0.275
Y2241.895 I0.275 J-0.275
G2 Y2240.145 I-0.875 J-0.875
G3 X39.547 Y2239.595 I0.275 J-0.275
G2 X40.422 Y2239.958 I0.875 J-0.875
G1 X448.825
G2 X449.7 Y2239.595 I0. J-1.238
G3 X450.248 Y2240.145 I0.274 J0.275
G2 X449.885 Y2241.02 I0.875 J0.875
G1 Y2403.32
Y2404.793
X449.882 Y2404.843
X449.839 Y2405.112
X449.828 Y2405.182 Z10.208
X449.817 Y2405.248 Z10.231
X449.808 Y2405.308 Z10.269
X449.8 Y2405.357 Z10.319
X449.794 Y2405.395 Z10.38
X449.79 Y2405.418 Z10.447
X449.789 Y2405.426 Z10.517
G0 Z30.
X941.477 Y1518.823
Z20.
G1 Z10.486 F1000.
X941.476 Y1518.816 Z10.422 F1800.
X941.473 Y1518.795 Z10.362
X941.467 Y1518.762 Z10.308
X941.46 Y1518.717 Z10.262
X941.452 Y1518.663 Z10.228
X941.442 Y1518.604 Z10.207
X941.432 Y1518.541 Z10.2
X941.387 Y1518.257
X941.383 Y1518.207
Y1216.23
G2 X940.146 Y1214.993 I-1.237 J0.
G1 X939.366
G3 X939.364 Y1214.593 I0. J-0.2
G1 X943.306 Y1214.552
G3 X943.508 Y1214.752 I0.002 J0.2
G1 Y1516.73
G2 X944.746 Y1517.968 I1.237 J0.
G1 X945.526
X945.576 Y1517.971
X945.845 Y1518.014
X945.915 Y1518.025 Z10.208
X945.981 Y1518.036 Z10.231
X946.04 Y1518.045 Z10.269
X946.09 Y1518.053 Z10.32
X946.128 Y1518.059 Z10.38
X946.151 Y1518.062 Z10.447
X946.159 Y1518.064 Z10.517
G0 Z30.
X-0.124 Y1178.802
Z20.
G1 Z10.517 F1000.
G18 G2 X0.194 Z10.2 I0.318 K0. F1800.
G1 X0.513
X6.4
G17 G2 X7.527 Y1178.566 I0. J-2.805
X8.487 Y1177.932 I-1.363 J-3.108
G3 X8.913 I0.213 J0.227
G2 X9.873 Y1178.566 I2.324 J-2.474
X11. Y1178.802 I1.127 J-2.569
G1 X928.639 Y1178.758
G3 X928.952 Y1179.071 I0. J0.313
G1 Y1179.949
G3 X928.639 Y1180.262 I-0.313 J0.
G1 X0.517
G3 X0.317 Y1180.061 I0. J-0.2
G1 X0.321 Y1177.147
G3 X0.521 Y1176.948 I0.2 J0.
G1 X6.4
G2 X7.637 Y1175.71 I0. J-1.238
G1 Y524.425
Y522.952
G3 X7.837 Y522.752 I0.2 J0.
G1 X9.562 Y522.75
G3 X9.762 Y522.95 I0. J0.2
G1 Y1175.71
G2 X11. Y1176.948 I1.238 J0.
G1 X929.701
G2 X930.576 Y1176.585 I0. J-1.238
G3 X931.126 I0.275 J0.275
X931.125 Y1177.135 I-0.275 J0.275
G2 X930.763 Y1178.01 I0.875 J0.875
G1 Y1181.02
G2 X931.126 Y1181.896 I1.237 J0.
G3 Y1182.441 I-0.272 J0.273
X930.58 Y1182.439 I-0.272 J-0.273
G2 X929.701 Y1182.073 I-0.879 J0.871
G1 X2.
X0.527
X0.477 Y1182.069
X0.208 Y1182.026
X0.138 Y1182.015 Z10.208
X0.072 Y1182.004 Z10.231
X0.012 Y1181.995 Z10.269
X-0.037 Y1181.987 Z10.32
X-0.075 Y1181.981 Z10.38
X-0.098 Y1181.977 Z10.447
X-0.106 Y1181.976 Z10.517
G0 Z30.
X602.014 Y9.583
Z20.
G1 Z10.486 F1000.
X602.016 Y9.59 Z10.422 F1800.
X602.019 Y9.611 Z10.362
X602.024 Y9.644 Z10.308
X602.031 Y9.689 Z10.262
X602.04 Y9.743 Z10.228
X602.049 Y9.802 Z10.207
X602.059 Y9.865 Z10.2
X602.103 Y10.139
X602.107 Y10.189
Y171.667
G2 X603.344 Y172.904 I1.237 J0.
G1 X604.124
G3 X604.126 Y173.304 I0. J0.2
G1 X600.184 Y173.345
G3 X599.982 Y173.145 I-0.002 J-0.2
G1 Y11.667
Y10.593
X599.985 Y10.543
X600.028 Y10.273
X600.039 Y10.204 Z10.208
X600.05 Y10.137 Z10.231
X600.059 Y10.078 Z10.269
X600.067 Y10.028 Z10.32
X600.073 Y9.991 Z10.38
X600.077 Y9.968 Z10.447
X600.078 Y9.96 Z10.517
G0 Z30.
X318.719 Y831.133
Z20.
G1 Z10.517 F1000.
X318.724 Y831.139 Z10.447 F1800.
X318.739 Y831.157 Z10.38
X318.763 Y831.187 Z10.32
X318.795 Y831.226 Z10.269
X318.833 Y831.272 Z10.231
X318.875 Y831.324 Z10.208
X318.92 Y831.379 Z10.2
X319.21 Y831.734
G2 X320.176 Y832.644 I3.911 J-3.188
G1 X320.205 Y832.672
X320.223 Y832.708
X320.229 Y832.748
X320.223 Y832.787
X320.205 Y832.823
X320.177 Y832.852
X320.141 Y832.87
X320.101 Y832.876
X319.152
G3 X318.795 Y832.564 I0. J-0.361
G2 X318.609 Y831.737 I-4.884 J0.663
G3 X318.8 Y831.476 I0.191 J-0.06
G1 X321.568 Y831.48
X321.612 Y831.485
X321.655 Y831.5
G2 X323. Y831.807 I1.345 J-2.784
G1 X928.639 Y831.763
G3 X928.952 Y832.076 I0. J0.313
G1 Y834.354
G3 X928.639 Y834.667 I-0.313 J0.
G1 X317.361
G3 X317.048 Y834.354 I0. J-0.313
X317.054 Y833.076 I145.393 J0.
G2 X316.766 Y831.832 I-2.729 J-0.024
G1 X316.718 Y831.74
G3 X316.769 Y831.488 I0.176 J-0.095
G1 X321.438 Y827.765
G3 X321.763 Y827.921 I0.125 J0.156
G1 Y828.715
G2 X323. Y829.953 I1.237 J0.
G1 X929.701
G2 X930.576 Y829.59 I0. J-1.237
G3 X931.125 I0.275 J0.274
Y830.139 I-0.274 J0.274
G2 X930.763 Y831.014 I0.875 J0.875
G1 Y835.416
G2 X931.125 Y836.291 I1.237 J0.
G3 Y836.84 I-0.274 J0.275
X930.576 I-0.274 J-0.274
G2 X929.701 Y836.477 I-0.875 J0.875
G1 X316.299
G2 X315.424 Y836.84 I0. J1.238
G3 X314.875 I-0.275 J-0.274
Y836.291 I0.274 J-0.274
G2 X315.237 Y835.416 I-0.875 J-0.875
G1 Y833.215
G2 X314. Y831.977 I-1.237 J0.
G1 X313.376
X313.326 Y831.974
X313.057 Y831.931
X312.987 Y831.92 Z10.208
X312.921 Y831.909 Z10.231
X312.861 Y831.9 Z10.269
X312.812 Y831.892 Z10.32
X312.774 Y831.886 Z10.38
X312.751 Y831.882 Z10.447
X312.743 Y831.881 Z10.517
G0 Z30.
X1084.28 Y433.271
Z20.
G1 Z10.486 F1000.
X1084.282 Y433.278 Z10.422 F1800.
X1084.285 Y433.299 Z10.362
X1084.29 Y433.333 Z10.308
X1084.297 Y433.377 Z10.262
X1084.306 Y433.431 Z10.228
X1084.315 Y433.49 Z10.207
X1084.325 Y433.553 Z10.2
X1084.369 Y433.828
X1084.373 Y433.877
Y849.857
G2 X1085.61 Y851.094 I1.237 J0.
G1 X1086.39
G3 X1086.392 Y851.495 I0. J0.2
G1 X1082.55 Y851.534
G3 X1082.348 Y851.334 I-0.002 J-0.2
G1 Y435.357
Y433.884
X1082.351 Y433.834
X1082.394 Y433.565
X1082.405 Y433.495 Z10.208
X1082.416 Y433.429 Z10.231
X1082.425 Y433.369 Z10.269
X1082.433 Y433.32 Z10.32
X1082.439 Y433.282 Z10.38
X1082.442 Y433.259 Z10.447
X1082.444 Y433.251 Z10.517
G0 Z30.
X919.145 Y1742.056
Z20.
G1 Z17.5 F1000.
Z10.517
X919.131 Y1742.075 Z10.396
X919.084 Y1742.125 Z10.293
X919.043 Y1742.156 Z10.259
X918.997 Y1742.179 Z10.224
X918.938 Y1742.196 Z10.212
X918.878 Y1742.202 Z10.2
X918.356 F1800.
G3 X918.036 Y1741.882 I0. J-0.319
G1 Y1740.838
G3 X918.356 Y1740.519 I0.319 J0.
G1 X1030.652
G3 X1030.972 Y1740.838 I0. J0.319
G1 Y1741.882
G3 X1030.652 Y1742.202 I-0.319 J0.
G1 X918.878
G2 X917.607 Y1742.876 I0. J1.534
G3 X916.232 Y1742.455 I-0.623 J-0.422
G1 Y1739.033
G3 X916.551 Y1738.714 I0.319 J0.
G1 X1032.457
G3 X1032.776 Y1739.033 I0. J0.319
G1 Y1743.687
G3 X1032.457 Y1744.006 I-0.319 J0.
G1 X916.551
G3 X916.232 Y1743.687 I0. J-0.319
G1 Y1742.455
G2 X915.329 Y1741.101 I-1.467 J0.
G3 X914.426 Y1739.747 I0.564 J-1.354
G1 Y1737.221
G3 X914.739 Y1736.908 I0.313 J0.
G1 X1034.269
G3 X1034.582 Y1737.221 I0. J0.313
G1 Y1745.499
G3 X1034.269 Y1745.812 I-0.313 J0.
G1 X914.739
G3 X914.426 Y1745.499 I0. J-0.313
G1 Y1739.747
G2 X913.521 Y1738.389 I-1.471 J0.
G3 X912.615 Y1737.031 I0.566 J-1.358
G1 Y1736.16
G2 X912.253 Y1735.285 I-1.237 J0.
G3 X912.802 Y1734.735 I0.275 J-0.275
G2 X913.677 Y1735.098 I0.875 J-0.875
G1 X1035.33
G2 X1036.205 Y1734.735 I0. J-1.238
G3 X1036.755 Y1735.285 I0.275 J0.275
G2 X1036.392 Y1736.16 I0.875 J0.875
G1 Y1746.56
G2 X1036.755 Y1747.435 I1.238 J0.
G3 X1036.205 Y1747.985 I-0.275 J0.275
G2 X1035.33 Y1747.623 I-0.875 J0.875
G1 X913.677
G2 X912.802 Y1747.984 I0. J1.237
G3 X912.253 Y1747.435 I-0.275 J-0.275
G2 X912.615 Y1746.56 I-0.875 J-0.875
G1 Y1737.031
X912.623 Y1736.97 Z10.212
X912.642 Y1736.913 Z10.224
X912.667 Y1736.868 Z10.259
X912.699 Y1736.827 Z10.293
X912.751 Y1736.783 Z10.396
X912.771 Y1736.77 Z10.517
G0 Z20.
X1094.237 Y1934.505
G1 Z17.5 F1000.
Z10.517
X1094.223 Y1934.525 Z10.396
X1094.176 Y1934.575 Z10.293
X1094.135 Y1934.605 Z10.259
X1094.089 Y1934.629 Z10.224
X1094.03 Y1934.646 Z10.212
X1093.97 Y1934.651 Z10.2
X1093.448 F1800.
G3 X1093.129 Y1934.332 I0. J-0.319
G1 Y1933.288
G3 X1093.448 Y1932.969 I0.319 J0.
G1 X1205.742
G3 X1206.062 Y1933.288 I0. J0.319
G1 Y1934.332
G3 X1205.742 Y1934.651 I-0.319 J0.
G1 X1093.97
G2 X1092.699 Y1935.326 I0. J1.534
G3 X1091.323 Y1934.905 I-0.623 J-0.422
G1 Y1931.483
G3 X1091.643 Y1931.163 I0.319 J0.
G1 X1207.547
G3 X1207.866 Y1931.483 I0. J0.319
G1 Y1936.137
G3 X1207.547 Y1936.457 I-0.319 J0.
G1 X1091.643
G3 X1091.323 Y1936.137 I0. J-0.319
G1 Y1934.905
G2 X1090.421 Y1933.551 I-1.467 J0.
G3 X1089.518 Y1932.197 I0.564 J-1.354
G1 Y1929.671
G3 X1089.831 Y1929.358 I0.313 J0.
G1 X1209.359
G3 X1209.672 Y1929.671 I0. J0.313
G1 Y1937.949
G3 X1209.359 Y1938.262 I-0.313 J0.
G1 X1089.831
G3 X1089.518 Y1937.949 I0. J-0.313
G1 Y1932.197
G2 X1088.613 Y1930.839 I-1.471 J0.
G3 X1087.708 Y1929.481 I0.566 J-1.358
G1 Y1928.61
G2 X1087.345 Y1927.735 I-1.238 J0.
G3 Y1927.185 I0.275 J-0.275
X1087.895 I0.275 J0.275
G2 X1088.77 Y1927.547 I0.875 J-0.875
G1 X1210.42
G2 X1211.295 Y1927.185 I0. J-1.237
G3 X1211.845 Y1927.735 I0.275 J0.275
G2 X1211.483 Y1928.61 I0.875 J0.875
G1 Y1939.01
G2 X1211.845 Y1939.885 I1.237 J0.
G3 X1211.295 Y1940.435 I-0.275 J0.275
G2 X1210.42 Y1940.073 I-0.875 J0.875
G1 X1088.77
G2 X1087.895 Y1940.435 I0. J1.238
G3 X1087.345 I-0.275 J-0.275
Y1939.885 I0.275 J-0.275
G2 X1087.708 Y1939.01 I-0.875 J-0.875
G1 Y1929.481
X1087.715 Y1929.421 Z10.212
X1087.734 Y1929.363 Z10.224
X1087.759 Y1929.318 Z10.259
X1087.791 Y1929.277 Z10.293
X1087.843 Y1929.233 Z10.396
X1087.863 Y1929.22 Z10.517
G0 Z20.
X919.145 Y2171.056
G1 Z17.5 F1000.
Z10.517
X919.131 Y2171.075 Z10.396
X919.084 Y2171.125 Z10.293
X919.043 Y2171.156 Z10.259
X918.997 Y2171.178 Z10.224
X918.938 Y2171.196 Z10.212
X918.878 Y2171.201 Z10.2
X918.356 F1800.
G3 X918.036 Y2170.882 I0. J-0.319
G1 Y2169.838
G3 X918.356 Y2169.519 I0.319 J0.
G1 X1030.652
G3 X1030.972 Y2169.838 I0. J0.319
G1 Y2170.882
G3 X1030.652 Y2171.201 I-0.319 J0.
G1 X918.878
G2 X917.607 Y2171.876 I0. J1.534
G3 X916.232 Y2171.455 I-0.623 J-0.422
G1 Y2168.033
G3 X916.551 Y2167.713 I0.319 J0.
G1 X1032.457
G3 X1032.776 Y2168.033 I0. J0.32
G1 Y2172.687
G3 X1032.457 Y2173.007 I-0.319 J0.
G1 X916.551
G3 X916.232 Y2172.687 I0. J-0.319
G1 Y2171.455
G2 X915.329 Y2170.101 I-1.467 J0.
G3 X914.426 Y2168.747 I0.564 J-1.354
G1 Y2166.221
G3 X914.739 Y2165.908 I0.313 J0.
G1 X1034.269
G3 X1034.582 Y2166.221 I0. J0.313
G1 Y2174.499
G3 X1034.269 Y2174.812 I-0.313 J0.
G1 X914.739
G3 X914.426 Y2174.499 I0. J-0.313
G1 Y2168.747
G2 X913.521 Y2167.389 I-1.471 J0.
G3 X912.615 Y2166.031 I0.566 J-1.358
G1 Y2165.16
G2 X912.253 Y2164.285 I-1.237 J0.
G3 X912.802 Y2163.736 I0.275 J-0.275
G2 X913.677 Y2164.097 I0.875 J-0.875
G1 X1035.33
G2 X1036.205 Y2163.735 I0. J-1.237
G3 X1036.755 Y2164.285 I0.275 J0.275
G2 X1036.392 Y2165.16 I0.875 J0.875
G1 Y2175.56
G2 X1036.755 Y2176.435 I1.238 J0.
G3 X1036.205 Y2176.985 I-0.275 J0.275
G2 X1035.33 Y2176.623 I-0.875 J0.875
G1 X913.677
G2 X912.802 Y2176.984 I0. J1.238
G3 X912.253 Y2176.435 I-0.275 J-0.275
G2 X912.615 Y2175.56 I-0.875 J-0.875
G1 Y2166.031
X912.623 Y2165.97 Z10.212
X912.642 Y2165.913 Z10.224
X912.667 Y2165.868 Z10.259
X912.699 Y2165.827 Z10.293
X912.751 Y2165.783 Z10.396
X912.771 Y2165.77 Z10.517
G0 Z20.
X1094.237 Y2363.506
G1 Z17.5 F1000.
Z10.517
X1094.223 Y2363.525 Z10.396
X1094.176 Y2363.575 Z10.293
X1094.135 Y2363.605 Z10.259
X1094.089 Y2363.628 Z10.224
X1094.03 Y2363.646 Z10.212
X1093.97 Y2363.652 Z10.2
X1093.448 F1800.
G3 X1093.129 Y2363.332 I0. J-0.32
G1 Y2362.288
G3 X1093.448 Y2361.969 I0.319 J0.
G1 X1205.742
G3 X1206.062 Y2362.288 I0. J0.319
G1 Y2363.332
G3 X1205.742 Y2363.652 I-0.319 J0.
G1 X1093.97
G2 X1092.699 Y2364.326 I0. J1.534
G3 X1091.323 Y2363.905 I-0.623 J-0.421
G1 Y2360.483
G3 X1091.643 Y2360.164 I0.319 J0.
G1 X1207.547
G3 X1207.866 Y2360.483 I0. J0.319
G1 Y2365.137
G3 X1207.547 Y2365.457 I-0.319 J0.
G1 X1091.643
G3 X1091.323 Y2365.137 I0. J-0.319
G1 Y2363.905
G2 X1090.421 Y2362.551 I-1.467 J0.
G3 X1089.518 Y2361.197 I0.564 J-1.354
G1 Y2358.671
G3 X1089.831 Y2358.358 I0.313 J0.
G1 X1209.359
G3 X1209.672 Y2358.671 I0. J0.313
G1 Y2366.949
G3 X1209.359 Y2367.262 I-0.313 J0.
G1 X1089.831
G3 X1089.518 Y2366.949 I0. J-0.313
G1 Y2361.197
G2 X1088.613 Y2359.839 I-1.471 J0.
G3 X1087.708 Y2358.481 I0.566 J-1.358
G1 Y2357.61
G2 X1087.345 Y2356.735 I-1.238 J0.
G3 X1087.895 Y2356.185 I0.275 J-0.275
G2 X1088.77 Y2356.548 I0.875 J-0.875
G1 X1210.42
G2 X1211.295 Y2356.185 I0. J-1.238
G3 X1211.845 Y2356.735 I0.275 J0.275
G2 X1211.483 Y2357.61 I0.875 J0.875
G1 Y2368.01
G2 X1211.845 Y2368.885 I1.237 J0.
G3 X1211.295 Y2369.435 I-0.275 J0.275
G2 X1210.42 Y2369.073 I-0.875 J0.875
G1 X1088.77
G2 X1087.895 Y2369.435 I0. J1.238
G3 X1087.345 Y2368.885 I-0.275 J-0.275
G2 X1087.708 Y2368.01 I-0.875 J-0.875
G1 Y2358.481
X1087.715 Y2358.421 Z10.212
X1087.734 Y2358.363 Z10.224
X1087.759 Y2358.318 Z10.259
X1087.791 Y2358.277 Z10.293
X1087.843 Y2358.233 Z10.396
X1087.863 Y2358.22 Z10.517
G0 Z20.
X50.267 Y834.521
G1 Z17.5 F1000.
Z10.517
X50.253 Y834.54 Z10.396
X50.206 Y834.59 Z10.293
X50.165 Y834.621 Z10.259
X50.119 Y834.644 Z10.224
X50.06 Y834.661 Z10.212
X50. Y834.667 Z10.2
X48.861 F1800.
G3 X48.548 Y834.354 I0. J-0.313
G1 Y832.076
G3 X48.861 Y831.763 I0.313 J0.
G1 X267.139
G3 X267.452 Y832.076 I0. J0.313
G1 Y834.354
G3 X267.139 Y834.667 I-0.313 J0.
G1 X50.
G2 X48.549 Y835.484 I0. J1.697
G3 X47.298 Y836.583 I-2.372 J-1.438
G2 X46.923 Y836.84 I0.5 J1.132
G3 X46.375 I-0.274 J-0.274
Y836.291 I0.274 J-0.274
G2 X46.737 Y835.416 I-0.875 J-0.875
G1 Y831.014
G2 X46.375 Y830.139 I-1.237 J0.
G3 Y829.59 I0.274 J-0.274
X46.923 I0.274 J0.274
G2 X47.799 Y829.953 I0.875 J-0.875
G1 X268.201
G2 X269.076 Y829.59 I0. J-1.237
G3 X269.625 I0.275 J0.274
Y830.139 I-0.274 J0.274
G2 X269.263 Y831.014 I0.875 J0.875
G1 Y835.416
G2 X269.625 Y836.291 I1.237 J0.
G3 Y836.84 I-0.274 J0.275
X269.076 I-0.274 J-0.274
G2 X268.201 Y836.477 I-0.875 J0.875
G1 X47.799
G2 X47.298 Y836.583 I0. J1.238
G1 X47.24 Y836.601 Z10.212
X47.18 Y836.606 Z10.224
X47.129 Y836.602 Z10.259
X47.079 Y836.589 Z10.293
X47.017 Y836.56 Z10.396
X46.997 Y836.546 Z10.517
G0 Z30.
X1106.72 Y0.369
Z20.
G1 Z10.486 F1000.
X1106.722 Y0.376 Z10.422 F1800.
X1106.725 Y0.397 Z10.362
X1106.73 Y0.431 Z10.308
X1106.737 Y0.476 Z10.262
X1106.746 Y0.529 Z10.228
X1106.755 Y0.589 Z10.207
X1106.765 Y0.651 Z10.2
X1106.809 Y0.926
X1106.813 Y0.976
Y416.956
G2 X1108.05 Y418.194 I1.238 J0.
G1 X1108.83
G3 X1108.832 Y418.593 I0. J0.2
G1 X1104.99 Y418.635
G3 X1104.787 Y418.435 I-0.002 J-0.2
G1 Y2.456
Y0.983
X1104.791 Y0.933
X1104.834 Y0.663
X1104.845 Y0.594 Z10.208
X1104.856 Y0.527 Z10.231
X1104.865 Y0.468 Z10.269
X1104.873 Y0.418 Z10.32
X1104.879 Y0.381 Z10.38
X1104.883 Y0.358 Z10.447
X1104.884 Y0.35 Z10.517
G0 Z30.
X89.073 Y1205.15
Z20.
G1 Z12.167 F1000.
X89.071 Y1205.158 Z12.097 F1800.
X89.063 Y1205.18 Z12.03
X89.05 Y1205.215 Z11.97
X89.033 Y1205.263 Z11.919
X89.013 Y1205.319 Z11.881
X88.99 Y1205.382 Z11.858
X88.966 Y1205.449 Z11.85
X88.859 Y1205.75
G3 X88.558 Y1205.962 I-0.301 J-0.108
G1 X33.734
G3 X33.431 Y1205.744 I0. J-0.319
G1 X33.427 Y1205.732
X33.405 Y1205.665 Z11.858
X33.383 Y1205.602 Z11.881
X33.364 Y1205.545 Z11.919
X33.348 Y1205.497 Z11.97
X33.336 Y1205.461 Z12.03
X33.328 Y1205.439 Z12.097
X33.326 Y1205.432 Z12.167
G0 Z20.
X90.682 Y1205.142
G1 Z12.167 F1000.
G19 G3 Y1205.459 Z11.85 J0.318 K0. F1800.
G1 Y1205.749
Y1207.447
G17 G3 X90.363 Y1207.766 I-0.319 J0.
G1 X31.929
G3 X31.609 Y1207.447 I0. J-0.319
G1 Y1205.749
Y1205.736
G19 G2 Y1205.419 Z12.167 J0. K0.317
G0 Z20.
X92.487 Y1205.149
G1 Z12.167 F1000.
G3 Y1205.466 Z11.85 J0.318 K0. F1800.
G1 Y1205.746
Y1209.252
G17 G3 X92.168 Y1209.572 I-0.319 J0.
G1 X30.124
G3 X29.804 Y1209.252 I0. J-0.319
G1 Y1205.752
Y1205.739
G19 G2 Y1205.422 Z12.167 J0. K0.317
G0 Z20.
X94.292 Y1205.146
G1 Z12.167 F1000.
G3 Y1205.464 Z11.85 J0.318 K0. F1800.
G1 Y1205.744
Y1211.057
G17 G3 X93.973 Y1211.376 I-0.319 J0.
G1 X28.319
G3 X27.999 Y1211.057 I0. J-0.319
G1 Y1205.755
Y1205.742
G19 G2 Y1205.425 Z12.167 J0. K0.317
G0 Z20.
X96.097 Y1205.144
G1 Z12.167 F1000.
G3 Y1205.462 Z11.85 J0.318 K0. F1800.
G1 Y1205.752
Y1212.869
G17 G3 X95.784 Y1213.182 I-0.313 J0.
G1 X26.507
G3 X26.194 Y1212.869 I0. J-0.313
G1 Y1205.746
Y1205.734
G19 G2 Y1205.417 Z12.167 J0. K0.317
G0 Z20.
X97.815 Y1205.143
G1 Z12.136 F1000.
X97.816 Y1205.15 Z12.072 F1800.
X97.819 Y1205.171 Z12.012
X97.824 Y1205.205 Z11.958
X97.832 Y1205.249 Z11.912
X97.84 Y1205.303 Z11.878
X97.849 Y1205.362 Z11.857
X97.859 Y1205.425 Z11.85
X97.904 Y1205.709
X97.908 Y1205.759
Y1213.93
G17 G2 X98.271 Y1214.805 I1.237 J0.
G3 Y1215.355 I-0.275 J0.275
X97.722 I-0.275 J-0.275
G2 X96.847 Y1214.993 I-0.875 J0.875
G1 X25.444
G2 X24.57 Y1215.355 I0. J1.237
G3 X24.02 I-0.275 J-0.275
X24.021 Y1214.805 I0.275 J-0.275
G2 X24.383 Y1213.93 I-0.875 J-0.875
G1 Y1207.23
Y1205.757
X24.387 Y1205.707
X24.43 Y1205.438
X24.441 Y1205.368 Z11.858
X24.451 Y1205.302 Z11.881
X24.461 Y1205.242 Z11.919
X24.469 Y1205.193 Z11.97
X24.475 Y1205.155 Z12.03
X24.478 Y1205.132 Z12.097
X24.48 Y1205.124 Z12.167
G0 Z20.
X89.073 Y1205.15
G1 Z9.017 F1000.
X89.071 Y1205.158 Z8.947 F1800.
X89.063 Y1205.18 Z8.88
X89.05 Y1205.215 Z8.82
X89.033 Y1205.263 Z8.769
X89.013 Y1205.319 Z8.731
X88.99 Y1205.382 Z8.708
X88.966 Y1205.449 Z8.7
X88.859 Y1205.75
G3 X88.558 Y1205.962 I-0.301 J-0.108
G1 X33.734
G3 X33.431 Y1205.744 I0. J-0.319
G1 X33.427 Y1205.732
X33.405 Y1205.665 Z8.708
X33.383 Y1205.602 Z8.731
X33.364 Y1205.545 Z8.769
X33.348 Y1205.497 Z8.82
X33.336 Y1205.461 Z8.88
X33.328 Y1205.439 Z8.947
X33.326 Y1205.432 Z9.017
G0 Z20.
X90.682 Y1205.142
G1 Z9.017 F1000.
G19 G3 Y1205.459 Z8.7 J0.318 K0. F1800.
G1 Y1205.749
Y1207.447
G17 G3 X90.363 Y1207.766 I-0.319 J0.
G1 X31.929
G3 X31.609 Y1207.447 I0. J-0.319
G1 Y1205.749
Y1205.736
G19 G2 Y1205.419 Z9.017 J0. K0.318
G0 Z20.
X92.487 Y1205.149
G1 Z9.017 F1000.
G3 Y1205.466 Z8.7 J0.318 K0. F1800.
G1 Y1205.746
Y1209.252
G17 G3 X92.168 Y1209.572 I-0.319 J0.
G1 X30.124
G3 X29.804 Y1209.252 I0. J-0.319
G1 Y1205.752
Y1205.739
G19 G2 Y1205.422 Z9.017 J0. K0.318
G0 Z20.
X94.292 Y1205.146
G1 Z9.017 F1000.
G3 Y1205.464 Z8.7 J0.318 K0. F1800.
G1 Y1205.744
Y1211.057
G17 G3 X93.973 Y1211.376 I-0.319 J0.
G1 X28.319
G3 X27.999 Y1211.057 I0. J-0.319
G1 Y1205.755
Y1205.742
G19 G2 Y1205.425 Z9.017 J0. K0.318
G0 Z20.
X96.097 Y1205.144
G1 Z9.017 F1000.
G3 Y1205.462 Z8.7 J0.318 K0. F1800.
G1 Y1205.752
Y1212.869
G17 G3 X95.784 Y1213.182 I-0.313 J0.
G1 X26.507
G3 X26.194 Y1212.869 I0. J-0.313
G1 Y1205.746
Y1205.734
G19 G2 Y1205.417 Z9.017 J0. K0.318
G0 Z20.
X97.815 Y1205.143
G1 Z8.986 F1000.
X97.816 Y1205.15 Z8.922 F1800.
X97.819 Y1205.171 Z8.862
X97.824 Y1205.205 Z8.808
X97.832 Y1205.249 Z8.762
X97.84 Y1205.303 Z8.728
X97.849 Y1205.362 Z8.707
X97.859 Y1205.425 Z8.7
X97.904 Y1205.709
X97.908 Y1205.759
Y1213.93
G17 G2 X98.271 Y1214.805 I1.237 J0.
G3 Y1215.355 I-0.275 J0.275
X97.722 I-0.275 J-0.275
G2 X96.847 Y1214.993 I-0.875 J0.875
G1 X25.444
G2 X24.57 Y1215.355 I0. J1.237
G3 X24.02 I-0.275 J-0.275
X24.021 Y1214.805 I0.275 J-0.275
G2 X24.383 Y1213.93 I-0.875 J-0.875
G1 Y1207.23
Y1205.757
X24.387 Y1205.707
X24.43 Y1205.438
X24.441 Y1205.368 Z8.708
X24.451 Y1205.302 Z8.731
X24.461 Y1205.242 Z8.769
X24.469 Y1205.193 Z8.82
X24.475 Y1205.155 Z8.88
X24.478 Y1205.132 Z8.947
X24.48 Y1205.124 Z9.017
G0 Z30.
X950.8 Y1205.962
Z20.
G1 Z12.167 F1000.
G18 G3 X950.483 Z11.85 I-0.318 K0. F1800.
G1 X949.896
X859.734
G17 G3 X859.431 Y1205.744 I0. J-0.319
G1 X859.427 Y1205.732
X859.405 Y1205.665 Z11.858
X859.383 Y1205.602 Z11.881
X859.364 Y1205.545 Z11.919
X859.348 Y1205.497 Z11.97
X859.336 Y1205.461 Z12.03
X859.328 Y1205.439 Z12.097
X859.326 Y1205.432 Z12.167
G0 Z20.
X951.273 Y1207.766
G1 Z12.167 F1000.
G18 G3 X950.956 Z11.85 I-0.318 K0. F1800.
G1 X950.626
X857.929
G17 G3 X857.609 Y1207.447 I0. J-0.319
G1 Y1205.749
Y1205.736
G19 G2 Y1205.419 Z12.167 J0. K0.317
G0 Z20.
X951.276 Y1209.572
G1 Z12.167 F1000.
G18 G3 X950.958 Z11.85 I-0.318 K0. F1800.
G1 X950.629
X856.124
G17 G3 X855.805 Y1209.252 I0. J-0.319
G1 Y1205.752
Y1205.739
G19 G2 Y1205.422 Z12.167 J0. K0.317
G0 Z20.
X951.269 Y1211.376
G1 Z12.167 F1000.
G18 G3 X950.951 Z11.85 I-0.318 K0. F1800.
G1 X950.632
X854.319
G17 G3 X854. Y1211.057 I0. J-0.319
G1 Y1205.755
Y1205.742
G19 G2 Y1205.425 Z12.167 J0. K0.317
G0 Z20.
X951.271 Y1213.182
G1 Z12.167 F1000.
G18 G3 X950.953 Z11.85 I-0.318 K0. F1800.
G1 X950.624
X852.507
G17 G3 X852.194 Y1212.869 I0. J-0.313
G1 Y1205.746
Y1205.734
G19 G2 Y1205.417 Z12.167 J0. K0.317
G0 Z20.
X951.269 Y1214.896
G1 Z12.136 F1000.
X951.262 Y1214.897 Z12.072 F1800.
X951.241 Y1214.9 Z12.012
X951.208 Y1214.905 Z11.958
X951.163 Y1214.913 Z11.912
X951.109 Y1214.921 Z11.878
X951.05 Y1214.93 Z11.857
X950.987 Y1214.94 Z11.85
X950.683 Y1214.989
X950.633 Y1214.993
X851.444
G17 G2 X850.569 Y1215.355 I0. J1.237
G3 X850.021 Y1214.805 I-0.274 J-0.275
G2 X850.383 Y1213.93 I-0.875 J-0.875
G1 Y1207.23
Y1205.757
X850.387 Y1205.707
X850.43 Y1205.438
X850.441 Y1205.368 Z11.858
X850.452 Y1205.302 Z11.881
X850.461 Y1205.242 Z11.919
X850.469 Y1205.193 Z11.97
X850.475 Y1205.155 Z12.03
X850.478 Y1205.132 Z12.097
X850.48 Y1205.124 Z12.167
G0 Z20.
X950.8 Y1205.962
G1 Z9.017 F1000.
G18 G3 X950.483 Z8.7 I-0.318 K0. F1800.
G1 X949.896
X859.734
G17 G3 X859.431 Y1205.744 I0. J-0.319
G1 X859.427 Y1205.732
X859.405 Y1205.665 Z8.708
X859.383 Y1205.602 Z8.731
X859.364 Y1205.545 Z8.769
X859.348 Y1205.497 Z8.82
X859.336 Y1205.461 Z8.88
X859.328 Y1205.439 Z8.947
X859.326 Y1205.432 Z9.017
G0 Z20.
X951.273 Y1207.766
G1 Z9.017 F1000.
G18 G3 X950.956 Z8.7 I-0.318 K0. F1800.
G1 X950.626
X857.929
G17 G3 X857.609 Y1207.447 I0. J-0.319
G1 Y1205.749
Y1205.736
G19 G2 Y1205.419 Z9.017 J0. K0.318
G0 Z20.
X951.276 Y1209.572
G1 Z9.017 F1000.
G18 G3 X950.958 Z8.7 I-0.318 K0. F1800.
G1 X950.629
X856.124
G17 G3 X855.805 Y1209.252 I0. J-0.319
G1 Y1205.752
Y1205.739
G19 G2 Y1205.422 Z9.017 J0. K0.318
G0 Z20.
X951.269 Y1211.376
G1 Z9.017 F1000.
G18 G3 X950.951 Z8.7 I-0.318 K0. F1800.
G1 X950.632
X854.319
G17 G3 X854. Y1211.057 I0. J-0.319
G1 Y1205.755
Y1205.742
G19 G2 Y1205.425 Z9.017 J0. K0.318
G0 Z20.
X951.271 Y1213.182
G1 Z9.017 F1000.
G18 G3 X950.953 Z8.7 I-0.318 K0. F1800.
G1 X950.624
X852.507
G17 G3 X852.194 Y1212.869 I0. J-0.313
G1 Y1205.746
Y1205.734
G19 G2 Y1205.417 Z9.017 J0. K0.318
G0 Z20.
X951.269 Y1214.896
G1 Z8.986 F1000.
X951.262 Y1214.897 Z8.922 F1800.
X951.241 Y1214.9 Z8.862
X951.208 Y1214.905 Z8.808
X951.163 Y1214.913 Z8.762
X951.109 Y1214.921 Z8.728
X951.05 Y1214.93 Z8.707
X950.987 Y1214.94 Z8.7
X950.683 Y1214.989
X950.633 Y1214.993
X851.444
G17 G2 X850.569 Y1215.355 I0. J1.237
G3 X850.021 Y1214.805 I-0.274 J-0.275
G2 X850.383 Y1213.93 I-0.875 J-0.875
G1 Y1207.23
Y1205.757
X850.387 Y1205.707
X850.43 Y1205.438
X850.441 Y1205.368 Z8.708
X850.452 Y1205.302 Z8.731
X850.461 Y1205.242 Z8.769
X850.469 Y1205.193 Z8.82
X850.475 Y1205.155 Z8.88
X850.478 Y1205.132 Z8.947
X850.48 Y1205.124 Z9.017
G0 Z30.
X0.184 Y519.873
Z20.
G1 Z15.635 F1000.
Z12.167 F1800.
G18 G2 X0.501 Z11.85 I0.317 K0.
G1 X939.639
G17 G3 X939.952 Y520.186 I0. J0.313
G1 Y521.064
G3 X939.639 Y521.377 I-0.313 J0.
G1 X323. Y521.333
G2 X319.908 Y524.425 I0. J3.092
G1 X319.952 Y829.854
G3 X319.639 Y830.167 I-0.313 J0.
G1 X317.361
G3 X317.048 Y829.854 I0. J-0.313
G1 X317.092 Y524.425
G2 X316.629 Y522.797 I-3.092 J0.
G3 X317.275 Y521.875 I0.981 J0.
X318.384 Y521.679 I1.109 J3.051
G1 X318.674
G3 X318.826 Y521.947 I0. J0.177
G2 X318.642 Y522.288 I4.174 J2.478
G3 X318.358 I-0.142 J-0.069
G2 X318.174 Y521.947 I-4.358 J2.137
G3 X318.326 Y521.679 I0.152 J-0.09
G1 X318.384
X318.424 Y521.684 Z11.858
X318.462 Y521.697 Z11.866
X318.491 Y521.713 Z11.889
X318.518 Y521.734 Z11.911
X318.548 Y521.769 Z11.98
X318.556 Y521.782 Z12.06
G0 Z20.
X-0.131 Y519.873
G1 Z12.167 F1000.
G18 G2 X0.187 Z11.85 I0.317 K0. F1800.
G1 X0.526
X939.639
G17 G3 X939.952 Y520.186 I0. J0.313
G1 Y521.064
G3 X939.639 Y521.377 I-0.313 J0.
G1 X323. Y521.333
G2 X319.908 Y524.425 I0. J3.092
G1 X319.952 Y829.854
G3 X319.639 Y830.167 I-0.313 J0.
G1 X317.361
G3 X317.048 Y829.854 I0. J-0.313
G1 X317.092 Y524.425
G2 X314. Y521.333 I-3.092 J0.
G1 X0.519 Y521.343
G3 X0.319 Y521.143 I0. J-0.2
G1 X0.316 Y518.263
G3 X0.516 Y518.063 I0.2 J0.
G1 X940.701
G2 X941.576 Y517.7 I0. J-1.237
G3 X942.125 I0.275 J0.274
Y518.249 I-0.274 J0.274
G2 X941.763 Y519.124 I0.875 J0.875
G1 Y522.126
G2 X942.125 Y523.001 I1.237 J0.
G3 Y523.55 I-0.274 J0.275
X941.576 I-0.274 J-0.274
G2 X940.701 Y523.188 I-0.875 J0.875
G1 X323.
G2 X321.763 Y524.425 I0. J1.237
G1 Y830.916
G2 X322.125 Y831.791 I1.237 J0.
G3 Y832.34 I-0.274 J0.275
X321.576 I-0.274 J-0.274
G2 X320.701 Y831.977 I-0.875 J0.875
G1 X316.299
G2 X315.424 Y832.34 I0. J1.238
G3 X314.875 I-0.275 J-0.274
Y831.791 I0.274 J-0.274
G2 X315.237 Y830.916 I-0.875 J-0.875
G1 Y524.425
G2 X314. Y523.188 I-1.237 J0.
G1 X2.
X0.527
X0.477 Y523.184
X0.208 Y523.141
X0.138 Y523.13 Z11.858
X0.072 Y523.119 Z11.881
X0.012 Y523.11 Z11.919
X-0.037 Y523.102 Z11.97
X-0.075 Y523.096 Z12.03
X-0.098 Y523.092 Z12.097
X-0.106 Y523.091 Z12.167
Z12.485
X0.184 Y519.873
Z9.017
G18 G2 X0.501 Z8.7 I0.317 K0.
G1 X939.639
G17 G3 X939.952 Y520.186 I0. J0.313
G1 Y521.064
G3 X939.639 Y521.377 I-0.313 J0.
G1 X323. Y521.333
G2 X319.908 Y524.425 I0. J3.092
G1 X319.952 Y829.854
G3 X319.639 Y830.167 I-0.313 J0.
G1 X317.361
G3 X317.048 Y829.854 I0. J-0.313
G1 X317.092 Y524.425
G2 X316.629 Y522.797 I-3.092 J0.
G3 X317.275 Y521.875 I0.981 J0.
X318.384 Y521.679 I1.109 J3.051
G1 X318.674
G3 X318.826 Y521.947 I0. J0.177
G2 X318.642 Y522.288 I4.174 J2.478
G3 X318.358 I-0.142 J-0.069
G2 X318.174 Y521.947 I-4.358 J2.137
G3 X318.326 Y521.679 I0.152 J-0.09
G1 X318.384
X318.424 Y521.684 Z8.708
X318.462 Y521.697 Z8.716
X318.491 Y521.713 Z8.739
X318.518 Y521.734 Z8.761
X318.548 Y521.769 Z8.83
X318.556 Y521.782 Z8.91
G0 Z20.
X-0.131 Y519.873
G1 Z9.017 F1000.
G18 G2 X0.187 Z8.7 I0.317 K0. F1800.
G1 X0.526
X939.639
G17 G3 X939.952 Y520.186 I0. J0.313
G1 Y521.064
G3 X939.639 Y521.377 I-0.313 J0.
G1 X323. Y521.333
G2 X319.908 Y524.425 I0. J3.092
G1 X319.952 Y829.854
G3 X319.639 Y830.167 I-0.313 J0.
G1 X317.361
G3 X317.048 Y829.854 I0. J-0.313
G1 X317.092 Y524.425
G2 X314. Y521.333 I-3.092 J0.
G1 X0.519 Y521.343
G3 X0.319 Y521.143 I0. J-0.2
G1 X0.316 Y518.263
G3 X0.516 Y518.063 I0.2 J0.
G1 X940.701
G2 X941.576 Y517.7 I0. J-1.237
G3 X942.125 I0.275 J0.274
Y518.249 I-0.274 J0.274
G2 X941.763 Y519.124 I0.875 J0.875
G1 Y522.126
G2 X942.125 Y523.001 I1.237 J0.
G3 Y523.55 I-0.274 J0.275
X941.576 I-0.274 J-0.274
G2 X940.701 Y523.188 I-0.875 J0.875
G1 X323.
G2 X321.763 Y524.425 I0. J1.237
G1 Y830.916
G2 X322.125 Y831.791 I1.237 J0.
G3 Y832.34 I-0.274 J0.275
X321.576 I-0.274 J-0.274
G2 X320.701 Y831.977 I-0.875 J0.875
G1 X316.299
G2 X315.424 Y832.34 I0. J1.238
G3 X314.875 I-0.275 J-0.274
Y831.791 I0.274 J-0.274
G2 X315.237 Y830.916 I-0.875 J-0.875
G1 Y524.425
G2 X314. Y523.188 I-1.237 J0.
G1 X2.
X0.527
X0.477 Y523.184
X0.208 Y523.141
X0.138 Y523.13 Z8.708
X0.072 Y523.119 Z8.731
X0.012 Y523.11 Z8.769
X-0.037 Y523.102 Z8.82
X-0.075 Y523.096 Z8.88
X-0.098 Y523.092 Z8.947
X-0.106 Y523.091 Z9.017
G0 Z30.
X950.866 Y10.333
Z20.
G1 Z11.386 F1000.
X950.859 Y10.334 Z11.322 F1800.
X950.838 Y10.337 Z11.262
X950.804 Y10.342 Z11.208
X950.76 Y10.35 Z11.162
X950.706 Y10.358 Z11.128
X950.647 Y10.367 Z11.107
X950.584 Y10.377 Z11.1
X950.28 Y10.425
X950.23 Y10.429
X601.043
G2 X600.168 Y10.792 I0. J1.237
G3 X599.619 Y10.243 I-0.274 J-0.274
G2 Y8.493 I-0.875 J-0.875
G3 Y7.943 I0.275 J-0.275
X600.168 Y7.942 I0.275 J0.274
G2 X601.043 Y8.304 I0.875 J-0.875
G1 X948.744
X950.217
X950.249 Y8.311
X950.276 Y8.329
X950.294 Y8.356
X950.301 Y8.387
X950.312 Y8.79
X950.769 Y9.916
X950.944 Y10.263
X950.952 Y10.293
X950.948 Y10.324
X950.933 Y10.351
X950.908 Y10.371
X950.878 Y10.379
X950.808 Y10.385 Z11.092
X950.741 Y10.39 Z11.069
X950.681 Y10.395 Z11.031
X950.631 Y10.398 Z10.98
X950.593 Y10.401 Z10.92
X950.57 Y10.403 Z10.853
X950.562 Y10.404 Z10.783
Z7.517
X950.554 Y10.405 Z7.447
X950.53 Y10.406 Z7.38
X950.493 Y10.409 Z7.32
X950.443 Y10.413 Z7.269
X950.383 Y10.418 Z7.231
X950.316 Y10.423 Z7.208
X950.245 Y10.429 Z7.2
X950.23
X601.043
G2 X600.168 Y10.792 I0. J1.237
G3 X599.619 Y10.243 I-0.274 J-0.274
G2 Y8.493 I-0.875 J-0.875
G3 Y7.943 I0.275 J-0.275
X600.168 Y7.942 I0.275 J0.274
G2 X601.043 Y8.304 I0.875 J-0.875
G1 X948.744
X950.217
X950.267 Y8.308
X950.536 Y8.351
X950.606 Y8.362 Z7.208
X950.672 Y8.373 Z7.231
X950.732 Y8.382 Z7.269
X950.781 Y8.39 Z7.32
X950.819 Y8.396 Z7.38
X950.842 Y8.399 Z7.447
X950.85 Y8.401 Z7.517
G0 Z30.
X97.541 Y182.714
Z20.
G1 Z9.917 F1000.
X97.539 Y182.721 Z9.847 F1800.
X97.531 Y182.744 Z9.78
X97.518 Y182.779 Z9.72
X97.501 Y182.827 Z9.669
X97.481 Y182.883 Z9.631
X97.458 Y182.946 Z9.608
X97.434 Y183.013 Z9.6
X97.327 Y183.314
G3 X97.026 Y183.525 I-0.301 J-0.108
G1 X33.202
G3 X32.899 Y183.308 I0. J-0.319
G1 X32.895 Y183.296
X32.873 Y183.229 Z9.608
X32.851 Y183.166 Z9.631
X32.832 Y183.109 Z9.669
X32.816 Y183.061 Z9.72
X32.804 Y183.025 Z9.78
X32.796 Y183.003 Z9.847
X32.794 Y182.996 Z9.917
G0 Z20.
X99.15 Y182.713
G1 Z9.917 F1000.
G19 G3 Y183.03 Z9.6 J0.318 K0. F1800.
G1 Y183.31
Y185.011
G17 G3 X98.831 Y185.331 I-0.319 J0.
G1 X31.397
G3 X31.077 Y185.011 I0. J-0.319
G1 Y183.313
Y183.301
G19 G2 Y182.983 Z9.917 J0. K0.317
G0 Z20.
X100.955 Y182.71
G1 Z9.917 F1000.
G3 Y183.028 Z9.6 J0.318 K0. F1800.
G1 Y183.307
Y186.816
G17 G3 X100.636 Y187.135 I-0.319 J0.
G1 X29.592
G3 X29.272 Y186.816 I0. J-0.319
G1 Y183.316
Y183.303
G19 G2 Y182.986 Z9.917 J0. K0.317
G0 Z20.
X102.76 Y182.715
G1 Z9.917 F1000.
G3 Y183.032 Z9.6 J0.318 K0. F1800.
G1 Y183.322
Y188.621
G17 G3 X102.441 Y188.941 I-0.319 J0.
G1 X27.787
G3 X27.468 Y188.621 I0. J-0.319
G1 Y183.318
Y183.306
G19 G2 Y182.989 Z9.917 J0. K0.317
G0 Z20.
X104.566 Y182.706
G1 Z9.917 F1000.
G3 Y183.023 Z9.6 J0.318 K0. F1800.
G1 Y183.313
Y190.433
G17 G3 X104.253 Y190.746 I-0.313 J0.
G1 X25.975
G3 X25.662 Y190.433 I0. J-0.313
G1 Y183.31
Y183.298
G19 G2 Y182.981 Z9.917 J0. K0.317
G0 Z20.
X106.284 Y182.714
G1 Z9.886 F1000.
X106.286 Y182.721 Z9.822 F1800.
X106.289 Y182.742 Z9.762
X106.294 Y182.776 Z9.708
X106.301 Y182.82 Z9.662
X106.31 Y182.874 Z9.628
X106.319 Y182.933 Z9.607
X106.329 Y182.996 Z9.6
X106.373 Y183.271
X106.377 Y183.32
Y191.496
G17 G2 X106.739 Y192.371 I1.237 J0.
G3 Y192.92 I-0.274 J0.274
X106.191 Y192.919 I-0.274 J-0.274
G2 X105.315 Y192.557 I-0.876 J0.875
G1 X24.913
G2 X24.037 Y192.919 I0. J1.238
G3 X23.489 I-0.274 J-0.274
Y192.371 I0.274 J-0.274
G2 X23.851 Y191.496 I-0.875 J-0.875
G1 Y184.794
Y183.321
X23.855 Y183.271
X23.898 Y183.002
X23.909 Y182.932 Z9.608
X23.92 Y182.866 Z9.631
X23.929 Y182.806 Z9.669
X23.937 Y182.757 Z9.72
X23.943 Y182.719 Z9.78
X23.947 Y182.696 Z9.847
X23.948 Y182.688 Z9.917
G0 Z20.
X97.541 Y182.714
G1 Z4.517 F1000.
X97.539 Y182.721 Z4.447 F1800.
X97.531 Y182.744 Z4.38
X97.518 Y182.779 Z4.32
X97.501 Y182.827 Z4.269
X97.481 Y182.883 Z4.231
X97.458 Y182.946 Z4.208
X97.434 Y183.013 Z4.2
X97.327 Y183.314
G3 X97.026 Y183.525 I-0.301 J-0.108
G1 X33.202
G3 X32.899 Y183.308 I0. J-0.319
G1 X32.895 Y183.296
X32.873 Y183.229 Z4.208
X32.851 Y183.166 Z4.231
X32.832 Y183.109 Z4.269
X32.816 Y183.061 Z4.32
X32.804 Y183.025 Z4.38
X32.796 Y183.003 Z4.447
X32.794 Y182.996 Z4.517
G0 Z20.
X99.15 Y182.713
G1 Z4.517 F1000.
G19 G3 Y183.03 Z4.2 J0.318 K0. F1800.
G1 Y183.31
Y185.011
G17 G3 X98.831 Y185.331 I-0.319 J0.
G1 X31.397
G3 X31.077 Y185.011 I0. J-0.319
G1 Y183.313
Y183.301
G19 G2 Y182.983 Z4.517 J0. K0.318
G0 Z20.
X100.955 Y182.71
G1 Z4.517 F1000.
G3 Y183.028 Z4.2 J0.318 K0. F1800.
G1 Y183.307
Y186.816
G17 G3 X100.636 Y187.135 I-0.319 J0.
G1 X29.592
G3 X29.272 Y186.816 I0. J-0.319
G1 Y183.316
Y183.303
G19 G2 Y182.986 Z4.517 J0. K0.318
G0 Z20.
X102.76 Y182.715
G1 Z4.517 F1000.
G3 Y183.032 Z4.2 J0.318 K0. F1800.
G1 Y183.322
Y188.621
G17 G3 X102.441 Y188.941 I-0.319 J0.
G1 X27.787
G3 X27.468 Y188.621 I0. J-0.319
G1 Y183.318
Y183.306
G19 G2 Y182.989 Z4.517 J0. K0.318
G0 Z20.
X104.566 Y182.706
G1 Z4.517 F1000.
G3 Y183.023 Z4.2 J0.318 K0. F1800.
G1 Y183.313
Y190.433
G17 G3 X104.253 Y190.746 I-0.313 J0.
G1 X25.975
G3 X25.662 Y190.433 I0. J-0.313
G1 Y183.31
Y183.298
G19 G2 Y182.981 Z4.517 J0. K0.318
G0 Z20.
X106.284 Y182.714
G1 Z4.486 F1000.
X106.286 Y182.721 Z4.422 F1800.
X106.289 Y182.742 Z4.362
X106.294 Y182.776 Z4.308
X106.301 Y182.82 Z4.262
X106.31 Y182.874 Z4.228
X106.319 Y182.933 Z4.207
X106.329 Y182.996 Z4.2
X106.373 Y183.271
X106.377 Y183.32
Y191.496
G17 G2 X106.739 Y192.371 I1.237 J0.
G3 Y192.92 I-0.274 J0.274
X106.191 Y192.919 I-0.274 J-0.274
G2 X105.315 Y192.557 I-0.876 J0.875
G1 X24.913
G2 X24.037 Y192.919 I0. J1.238
G3 X23.489 I-0.274 J-0.274
Y192.371 I0.274 J-0.274
G2 X23.851 Y191.496 I-0.875 J-0.875
G1 Y184.794
Y183.321
X23.855 Y183.271
X23.898 Y183.002
X23.909 Y182.932 Z4.208
X23.92 Y182.866 Z4.231
X23.929 Y182.806 Z4.269
X23.937 Y182.757 Z4.32
X23.943 Y182.719 Z4.38
X23.947 Y182.696 Z4.447
X23.948 Y182.688 Z4.517
G0 Z30.
X923.541 Y182.714
Z20.
G1 Z9.917 F1000.
X923.539 Y182.721 Z9.847 F1800.
X923.531 Y182.744 Z9.78
X923.518 Y182.779 Z9.72
X923.501 Y182.827 Z9.669
X923.481 Y182.883 Z9.631
X923.458 Y182.946 Z9.608
X923.434 Y183.013 Z9.6
X923.327 Y183.314
G3 X923.026 Y183.525 I-0.301 J-0.108
G1 X868.202
G3 X867.899 Y183.308 I0. J-0.319
G1 X867.895 Y183.296
X867.873 Y183.229 Z9.608
X867.851 Y183.166 Z9.631
X867.832 Y183.109 Z9.669
X867.816 Y183.061 Z9.72
X867.804 Y183.025 Z9.78
X867.796 Y183.003 Z9.847
X867.794 Y182.996 Z9.917
G0 Z20.
X925.151 Y182.709
G1 Z9.917 F1000.
G19 G3 Y183.026 Z9.6 J0.317 K0. F1800.
G1 Y183.316
Y185.011
G17 G3 X924.831 Y185.331 I-0.319 J0.
G1 X866.397
G3 X866.078 Y185.011 I0. J-0.319
G1 Y183.313
Y183.301
G19 G2 Y182.983 Z9.917 J0. K0.317
G0 Z20.
X926.956 Y182.706
G1 Z9.917 F1000.
G3 Y183.024 Z9.6 J0.318 K0. F1800.
G1 Y183.313
Y186.816
G17 G3 X926.636 Y187.135 I-0.319 J0.
G1 X864.592
G3 X864.273 Y186.816 I0. J-0.319
G1 Y183.316
Y183.303
G19 G2 Y182.986 Z9.917 J0. K0.317
G0 Z20.
X928.76 Y182.713
G1 Z9.917 F1000.
G3 Y183.031 Z9.6 J0.318 K0. F1800.
G1 Y183.31
Y188.621
G17 G3 X928.441 Y188.941 I-0.319 J0.
G1 X862.787
G3 X862.468 Y188.621 I0. J-0.319
G1 Y183.318
Y183.306
G19 G2 Y182.989 Z9.917 J0. K0.317
G0 Z20.
X930.566 Y182.711
G1 Z9.917 F1000.
G3 Y183.029 Z9.6 J0.318 K0. F1800.
G1 Y183.319
Y190.433
G17 G3 X930.253 Y190.746 I-0.313 J0.
G1 X860.975
G3 X860.662 Y190.433 I0. J-0.313
G1 Y183.31
Y183.298
G19 G2 Y182.981 Z9.917 J0. K0.317
G0 Z20.
X932.286 Y182.712
G1 Z9.886 F1000.
X932.287 Y182.719 Z9.822 F1800.
X932.29 Y182.74 Z9.762
X932.296 Y182.774 Z9.708
X932.303 Y182.819 Z9.662
X932.311 Y182.872 Z9.628
X932.321 Y182.932 Z9.607
X932.331 Y182.995 Z9.6
X932.373 Y183.259
X932.377 Y183.309
Y191.496
G17 G2 X932.739 Y192.371 I1.237 J0.
G3 Y192.92 I-0.274 J0.274
X932.19 Y192.919 I-0.274 J-0.274
G2 X931.315 Y192.557 I-0.875 J0.875
G1 X859.913
G2 X859.037 Y192.919 I0. J1.238
G3 X858.489 Y192.92 I-0.274 J-0.274
Y192.371 I0.274 J-0.274
G2 X858.852 Y191.496 I-0.875 J-0.875
G1 Y184.794
Y183.321
X858.855 Y183.271
X858.898 Y183.002
X858.909 Y182.932 Z9.608
X858.92 Y182.866 Z9.631
X858.929 Y182.806 Z9.669
X858.937 Y182.757 Z9.72
X858.943 Y182.719 Z9.78
X858.947 Y182.696 Z9.847
X858.948 Y182.688 Z9.917
G0 Z20.
X923.541 Y182.714
G1 Z4.517 F1000.
X923.539 Y182.721 Z4.447 F1800.
X923.531 Y182.744 Z4.38
X923.518 Y182.779 Z4.32
X923.501 Y182.827 Z4.269
X923.481 Y182.883 Z4.231
X923.458 Y182.946 Z4.208
X923.434 Y183.013 Z4.2
X923.327 Y183.314
G3 X923.026 Y183.525 I-0.301 J-0.108
G1 X868.202
G3 X867.899 Y183.308 I0. J-0.319
G1 X867.895 Y183.296
X867.873 Y183.229 Z4.208
X867.851 Y183.166 Z4.231
X867.832 Y183.109 Z4.269
X867.816 Y183.061 Z4.32
X867.804 Y183.025 Z4.38
X867.796 Y183.003 Z4.447
X867.794 Y182.996 Z4.517
G0 Z20.
X925.151 Y182.709
G1 Z4.517 F1000.
G19 G3 Y183.026 Z4.2 J0.317 K0. F1800.
G1 Y183.316
Y185.011
G17 G3 X924.831 Y185.331 I-0.319 J0.
G1 X866.397
G3 X866.078 Y185.011 I0. J-0.319
G1 Y183.313
Y183.301
G19 G2 Y182.983 Z4.517 J0. K0.318
G0 Z20.
X926.956 Y182.706
G1 Z4.517 F1000.
G3 Y183.024 Z4.2 J0.318 K0. F1800.
G1 Y183.313
Y186.816
G17 G3 X926.636 Y187.135 I-0.319 J0.
G1 X864.592
G3 X864.273 Y186.816 I0. J-0.319
G1 Y183.316
Y183.303
G19 G2 Y182.986 Z4.517 J0. K0.318
G0 Z20.
X928.76 Y182.713
G1 Z4.517 F1000.
G3 Y183.031 Z4.2 J0.318 K0. F1800.
G1 Y183.31
Y188.621
G17 G3 X928.441 Y188.941 I-0.319 J0.
G1 X862.787
G3 X862.468 Y188.621 I0. J-0.319
G1 Y183.318
Y183.306
G19 G2 Y182.989 Z4.517 J0. K0.318
G0 Z20.
X930.566 Y182.711
G1 Z4.517 F1000.
G3 Y183.029 Z4.2 J0.318 K0. F1800.
G1 Y183.319
Y190.433
G17 G3 X930.253 Y190.746 I-0.313 J0.
G1 X860.975
G3 X860.662 Y190.433 I0. J-0.313
G1 Y183.31
Y183.298
G19 G2 Y182.981 Z4.517 J0. K0.318
G0 Z20.
X932.286 Y182.712
G1 Z4.486 F1000.
X932.287 Y182.719 Z4.422 F1800.
X932.29 Y182.74 Z4.362
X932.296 Y182.774 Z4.308
X932.303 Y182.819 Z4.262
X932.311 Y182.872 Z4.228
X932.321 Y182.932 Z4.207
X932.331 Y182.995 Z4.2
X932.373 Y183.259
X932.377 Y183.309
Y191.496
G17 G2 X932.739 Y192.371 I1.237 J0.
G3 Y192.92 I-0.274 J0.274
X932.19 Y192.919 I-0.274 J-0.274
G2 X931.315 Y192.557 I-0.875 J0.875
G1 X859.913
G2 X859.037 Y192.919 I0. J1.238
G3 X858.489 Y192.92 I-0.274 J-0.274
Y192.371 I0.274 J-0.274
G2 X858.852 Y191.496 I-0.875 J-0.875
G1 Y184.794
Y183.321
X858.855 Y183.271
X858.898 Y183.002
X858.909 Y182.932 Z4.208
X858.92 Y182.866 Z4.231
X858.929 Y182.806 Z4.269
X858.937 Y182.757 Z4.32
X858.943 Y182.719 Z4.38
X858.947 Y182.696 Z4.447
X858.948 Y182.688 Z4.517
G0 Z30.

(2D CONTOUR18)
G0 X725.76 Y1865.28
Z30.
Z20.
G1 Z15.635 F1000.
Z7.317
G19 G3 Y1865.598 Z7. J0.318 K0. F1800.
G1 Y1865.915
G17 G3 X725.442 Y1866.233 I-0.318 J0.
G1 X228.852
G3 X217.24 Y1854.62 I0. J-11.613
G1 Y1818.75
G3 X228.852 Y1807.137 I11.613 J0.
G1 X725.442
G2 X733.83 Y1798.75 I0. J-8.387
G1 Y1762.89
G2 X725.442 Y1754.502 I-8.388 J0.
G1 X228.852
G3 X217.24 Y1742.89 I0. J-11.612
G1 Y1707.02
G3 X228.852 Y1695.407 I11.613 J0.
G1 X725.442
G2 X733.83 Y1687.02 I0. J-8.387
G1 Y1651.15
G2 X725.442 Y1642.762 I-8.388 J0.
G1 X228.852
G3 X217.24 Y1631.15 I0. J-11.612
G1 Y1595.28
G3 X228.852 Y1583.667 I11.613 J0.
G1 X850.142
G2 X866.729 Y1567.08 I0. J-16.588
G1 Y1544.41
G2 X850.142 Y1527.823 I-16.587 J0.
G1 X168.852
G2 X167.264 Y1529.41 I0. J1.588
G1 Y1698.243
X8.852
G2 X7.265 Y1699.83 I0. J1.587
G1 Y2199.83
G2 X8.852 Y2201.417 I1.588 J0.
G1 X220.236
G2 X221.272 Y2198.627 I0. J-1.587
G3 X217.24 Y2189.83 I7.58 J-8.797
G1 Y2153.96
G3 X228.852 Y2142.347 I11.613 J0.
G1 X725.442
G2 X733.83 Y2133.96 I0. J-8.387
G1 Y2098.09
G2 X725.442 Y2089.702 I-8.388 J0.
G1 X228.852
G3 X217.24 Y2078.09 I0. J-11.612
G1 Y2042.22
G3 X228.852 Y2030.608 I11.613 J0.
G1 X725.442
G2 X733.83 Y2022.22 I0. J-8.388
G1 Y1986.36
G2 X725.442 Y1977.973 I-8.388 J0.
G1 X228.852
G3 X217.24 Y1966.36 I0. J-11.613
G1 Y1930.49
G3 X228.852 Y1918.877 I11.613 J0.
G1 X725.442
G2 X733.83 Y1910.49 I0. J-8.387
G1 Y1874.62
G2 X725.442 Y1866.233 I-8.388 J0.
G3 X725.125 Y1865.915 I0. J-0.318
G1 Y1865.598
G19 G2 Y1865.28 Z7.317 J0. K0.318
G0 Z20.
X725.76
G1 Z7.635 F1000.
Z-0.183
G3 Y1865.598 Z-0.5 J0.318 K0. F1800.
G1 Y1865.915
G17 G3 X725.442 Y1866.233 I-0.318 J0.
G1 X228.852
G3 X217.24 Y1854.62 I0. J-11.613
G1 Y1818.75
G3 X228.852 Y1807.137 I11.613 J0.
G1 X725.442
G2 X733.83 Y1798.75 I0. J-8.387
G1 Y1762.89
G2 X725.442 Y1754.502 I-8.388 J0.
G1 X228.852
G3 X217.24 Y1742.89 I0. J-11.612
G1 Y1707.02
G3 X228.852 Y1695.407 I11.613 J0.
G1 X725.442
G2 X733.83 Y1687.02 I0. J-8.387
G1 Y1651.15
G2 X725.442 Y1642.762 I-8.388 J0.
G1 X228.852
G3 X217.24 Y1631.15 I0. J-11.612
G1 Y1595.28
G3 X228.852 Y1583.667 I11.613 J0.
G1 X850.142
G2 X866.729 Y1567.08 I0. J-16.588
G1 Y1544.41
G2 X850.142 Y1527.823 I-16.587 J0.
G1 X168.852
G2 X167.264 Y1529.41 I0. J1.588
G1 Y1698.243
X8.852
G2 X7.265 Y1699.83 I0. J1.587
G1 Y2199.83
G2 X8.852 Y2201.417 I1.588 J0.
G1 X220.236
G2 X221.272 Y2198.627 I0. J-1.587
G3 X217.24 Y2189.83 I7.58 J-8.797
G1 Y2153.96
G3 X228.852 Y2142.347 I11.613 J0.
G1 X725.442
G2 X733.83 Y2133.96 I0. J-8.387
G1 Y2098.09
G2 X725.442 Y2089.702 I-8.388 J0.
G1 X228.852
G3 X217.24 Y2078.09 I0. J-11.612
G1 Y2042.22
G3 X228.852 Y2030.608 I11.613 J0.
G1 X725.442
G2 X733.83 Y2022.22 I0. J-8.388
G1 Y1986.36
G2 X725.442 Y1977.973 I-8.388 J0.
G1 X228.852
G3 X217.24 Y1966.36 I0. J-11.613
G1 Y1930.49
G3 X228.852 Y1918.877 I11.613 J0.
G1 X725.442
G2 X733.83 Y1910.49 I0. J-8.387
G1 Y1874.62
G2 X725.442 Y1866.233 I-8.388 J0.
G3 X725.125 Y1865.915 I0. J-0.318
G1 Y1865.598
G19 G2 Y1865.28 Z-0.183 J0. K0.317
G0 Z30.
G17

(2D CONTOUR18 3)
G0 X725.442 Y1866.233
Z30.
Z20.
G1 Z15.635 F1000.
Z7.
X228.852 F1800.
G3 X217.24 Y1854.62 I0. J-11.613
G1 Y1818.75
G3 X228.852 Y1807.137 I11.613 J0.
G1 X725.442
G2 X733.83 Y1798.75 I0. J-8.387
G1 Y1762.89
G2 X725.442 Y1754.502 I-8.388 J0.
G1 X228.852
G3 X217.24 Y1742.89 I0. J-11.612
G1 Y1707.02
G3 X228.852 Y1695.407 I11.613 J0.
G1 X725.442
G2 X733.83 Y1687.02 I0. J-8.387
G1 Y1651.15
G2 X725.442 Y1642.762 I-8.388 J0.
G1 X228.852
G3 X217.24 Y1631.15 I0. J-11.612
G1 Y1595.28
G3 X228.852 Y1583.667 I11.613 J0.
G1 X850.142
G2 X866.729 Y1567.08 I0. J-16.588
G1 Y1544.41
G2 X850.142 Y1527.823 I-16.587 J0.
G1 X168.852
G2 X167.264 Y1529.41 I0. J1.588
G1 Y1698.243
X8.852
G2 X7.265 Y1699.83 I0. J1.587
G1 Y2199.83
G2 X8.852 Y2201.417 I1.588 J0.
G1 X220.236
G2 X221.272 Y2198.627 I0. J-1.587
G3 X217.24 Y2189.83 I7.58 J-8.797
G1 Y2153.96
G3 X228.852 Y2142.347 I11.613 J0.
G1 X725.442
G2 X733.83 Y2133.96 I0. J-8.387
G1 Y2098.09
G2 X725.442 Y2089.702 I-8.388 J0.
G1 X228.852
G3 X217.24 Y2078.09 I0. J-11.612
G1 Y2042.22
G3 X228.852 Y2030.608 I11.613 J0.
G1 X725.442
G2 X733.83 Y2022.22 I0. J-8.388
G1 Y1986.36
G2 X725.442 Y1977.973 I-8.388 J0.
G1 X228.852
G3 X217.24 Y1966.36 I0. J-11.613
G1 Y1930.49
G3 X228.852 Y1918.877 I11.613 J0.
G1 X725.442
G2 X733.83 Y1910.49 I0. J-8.387
G1 Y1874.62
G2 X725.442 Y1866.233 I-8.388 J0.
G1 Z-0.5 F1000.
X228.852 F1800.
G3 X217.24 Y1854.62 I0. J-11.613
G1 Y1818.75
G3 X228.852 Y1807.137 I11.613 J0.
G1 X725.442
G2 X733.83 Y1798.75 I0. J-8.387
G1 Y1762.89
G2 X725.442 Y1754.502 I-8.388 J0.
G1 X228.852
G3 X217.24 Y1742.89 I0. J-11.612
G1 Y1707.02
G3 X228.852 Y1695.407 I11.613 J0.
G1 X725.442
G2 X733.83 Y1687.02 I0. J-8.387
G1 Y1651.15
G2 X725.442 Y1642.762 I-8.388 J0.
G1 X228.852
G3 X217.24 Y1631.15 I0. J-11.612
G1 Y1595.28
G3 X228.852 Y1583.667 I11.613 J0.
G1 X850.142
G2 X866.729 Y1567.08 I0. J-16.588
G1 Y1544.41
G2 X850.142 Y1527.823 I-16.587 J0.
G1 X168.852
G2 X167.264 Y1529.41 I0. J1.588
G1 Y1698.243
X8.852
G2 X7.265 Y1699.83 I0. J1.587
G1 Y2199.83
G2 X8.852 Y2201.417 I1.588 J0.
G1 X220.236
G2 X221.272 Y2198.627 I0. J-1.587
G3 X217.24 Y2189.83 I7.58 J-8.797
G1 Y2153.96
G3 X228.852 Y2142.347 I11.613 J0.
G1 X725.442
G2 X733.83 Y2133.96 I0. J-8.387
G1 Y2098.09
G2 X725.442 Y2089.702 I-8.388 J0.
G1 X228.852
G3 X217.24 Y2078.09 I0. J-11.612
G1 Y2042.22
G3 X228.852 Y2030.608 I11.613 J0.
G1 X725.442
G2 X733.83 Y2022.22 I0. J-8.388
G1 Y1986.36
G2 X725.442 Y1977.973 I-8.388 J0.
G1 X228.852
G3 X217.24 Y1966.36 I0. J-11.613
G1 Y1930.49
G3 X228.852 Y1918.877 I11.613 J0.
G1 X725.442
G2 X733.83 Y1910.49 I0. J-8.387
G1 Y1874.62
G2 X725.442 Y1866.233 I-8.388 J0.
G0 Z30.

(2D CONTOUR18 6)
G0 X217.264 Y2189.83
Z30.
Z20.
G1 Z15.635 F1000.
Z7.
G2 X228.852 Y2201.417 I11.588 J0. F1800.
G1 X850.142
G2 X866.729 Y2184.83 I0. J-16.587
G1 Y1600.28
G2 X850.142 Y1583.693 I-16.587 J0.
G0 Z20.
X217.264 Y2189.83
G1 Z7.635 F1000.
Z-0.5
G2 X228.852 Y2201.417 I11.588 J0. F1800.
G1 X850.142
G2 X866.729 Y2184.83 I0. J-16.587
G1 Y1600.28
G2 X850.142 Y1583.693 I-16.587 J0.
G0 Z30.

(2D CONTOUR18 4)
G0 X154.145 Y544.013
Z30.
Z20.
G1 Z15.635 F1000.
Z7.
X281. F1800.
G3 X294.413 Y557.425 I0. J13.412
G1 Y795.715
G3 X281. Y809.128 I-13.413 J0.
G1 X35.
G3 X21.587 Y795.715 I0. J-13.412
G1 Y557.425
G3 X35. Y544.013 I13.413 J0.
G1 X154.145
Z-0.5 F1000.
X281. F1800.
G3 X294.413 Y557.425 I0. J13.412
G1 Y795.715
G3 X281. Y809.128 I-13.413 J0.
G1 X35.
G3 X21.587 Y795.715 I0. J-13.412
G1 Y557.425
G3 X35. Y544.013 I13.413 J0.
G1 X154.145
G0 Z30.

(2D CONTOUR18 5)
G0 X263.407 Y676.925
Z30.
Z20.
G1 Z15.635 F1000.
Z7.
G3 X241.593 Y676.215 I-10.907 J-0.355 F1800.
X263.407 Y676.925 I10.907 J0.355
G1 Z-0.5 F1000.
G3 X241.593 Y676.215 I-10.907 J-0.355 F1800.
X263.407 Y676.925 I10.907 J0.355
G0 Z20.
X74.412 Y676.57
G1 Z15.635 F1000.
Z7.
G3 X52.588 I-10.912 J0. F1800.
X74.412 I10.912 J0.
G1 Z-0.5 F1000.
G3 X52.588 I-10.912 J0. F1800.
X74.412 I10.912 J0.
G0 Z30.

(2D CONTOUR18 2)
G0 X5.606 Y1206.912
Z30.
Z20.
G1 Z15.635 F1000.
Z7.317
G18 G2 X5.923 Z7. I0.317 K0. F1800.
G1 X6.241
G17 G3 X6.558 Y1207.23 I0. J0.318
G1 Y1512.23
G2 X8.146 Y1513.818 I1.587 J0.
G1 X17.727
G2 X17.558 Y1514.53 I1.419 J0.713
G1 Y1516.73
G2 X19.146 Y1518.318 I1.587 J0.
G1 X949.146
G2 X950.734 Y1516.73 I0. J-1.588
G1 Y1207.23
G2 X949.146 Y1205.642 I-1.588 J0.
G1 X8.146
G2 X6.558 Y1207.23 I0. J1.588
G3 X6.241 Y1207.547 I-0.318 J0.
G1 X5.923
G18 G3 X5.606 Z7.317 I0. K0.318
G0 Z20.
Y1206.912
G1 Z7.635 F1000.
Z-0.183
G2 X5.923 Z-0.5 I0.317 K0. F1800.
G1 X6.241
G17 G3 X6.558 Y1207.23 I0. J0.318
G1 Y1512.23
G2 X8.146 Y1513.818 I1.587 J0.
G1 X17.727
G2 X17.558 Y1514.53 I1.419 J0.713
G1 Y1516.73
G2 X19.146 Y1518.318 I1.587 J0.
G1 X949.146
G2 X950.734 Y1516.73 I0. J-1.588
G1 Y1207.23
G2 X949.146 Y1205.642 I-1.588 J0.
G1 X8.146
G2 X6.558 Y1207.23 I0. J1.588
G3 X6.241 Y1207.547 I-0.318 J0.
G1 X5.923
G18 G3 X5.606 Z-0.183 I0. K0.317
G0 Z20.
X951.682 Y1193.25
G1 Z15.635 F1000.
Z7.317
G19 G2 Y1192.932 Z7. J-0.318 K0. F1800.
G1 Y1192.615
G17 G3 X952. Y1192.297 I0.318 J0.
G2 X953.588 Y1190.71 I0. J-1.588
G1 Y509.425
G2 X952. Y507.837 I-1.588 J0.
G1 X2.
G2 X0.412 Y509.425 I0. J1.587
G1 Y1190.71
G2 X2. Y1192.297 I1.588 J0.
G1 X952.
G3 X952.318 Y1192.615 I0. J0.318
G1 Y1192.932
G19 G3 Y1193.25 Z7.317 J0. K0.318
G0 Z20.
X951.682
G1 Z7.635 F1000.
Z-0.183
G2 Y1192.932 Z-0.5 J-0.318 K0. F1800.
G1 Y1192.615
G17 G3 X952. Y1192.297 I0.318 J0.
G2 X953.588 Y1190.71 I0. J-1.588
G1 Y509.425
G2 X952. Y507.837 I-1.588 J0.
G1 X2.
G2 X0.412 Y509.425 I0. J1.587
G1 Y1190.71
G2 X2. Y1192.297 I1.588 J0.
G1 X952.
G3 X952.318 Y1192.615 I0. J0.318
G1 Y1192.932
G19 G3 Y1193.25 Z-0.183 J0. K0.317
G0 Z20.
X982.668 Y1176.429
G1 Z15.635 F1000.
Z7.317
X982.674 Y1176.423 Z7.247 F1800.
X982.691 Y1176.408 Z7.18
X982.719 Y1176.383 Z7.12
X982.757 Y1176.349 Z7.069
X982.802 Y1176.309 Z7.031
X982.852 Y1176.265 Z7.008
X982.905 Y1176.218 Z7.
X983.143 Y1176.007
G17 G3 X983.591 Y1176.034 I0.211 J0.237
G2 X984.778 Y1176.568 I1.187 J-1.054
G1 X1013.28
G2 X1014.867 Y1174.98 I0. J-1.588
G1 Y857.194
G2 X1013.28 Y855.607 I-1.587 J0.
G1 X978.778
G2 X977.19 Y857.194 I0. J1.587
G1 Y1170.48
G2 X978.778 Y1172.068 I1.588 J0.
G1 X983.19
Y1174.98
G2 X983.591 Y1176.034 I1.588 J0.
G3 X983.564 Y1176.482 I-0.237 J0.211
G1 X983.327 Y1176.693
X983.274 Y1176.74 Z7.008
X983.224 Y1176.784 Z7.031
X983.179 Y1176.824 Z7.069
X983.141 Y1176.858 Z7.12
X983.113 Y1176.883 Z7.18
X983.095 Y1176.898 Z7.247
X983.089 Y1176.904 Z7.317
G0 Z20.
X982.668 Y1176.429
G1 Z7.635 F1000.
Z-0.183
X982.674 Y1176.423 Z-0.253 F1800.
X982.691 Y1176.408 Z-0.32
X982.719 Y1176.383 Z-0.38
X982.757 Y1176.349 Z-0.431
X982.802 Y1176.309 Z-0.469
X982.852 Y1176.265 Z-0.492
X982.905 Y1176.218 Z-0.5
X983.143 Y1176.007
G3 X983.591 Y1176.034 I0.211 J0.237
G2 X984.778 Y1176.568 I1.187 J-1.054
G1 X1013.28
G2 X1014.867 Y1174.98 I0. J-1.588
G1 Y857.194
G2 X1013.28 Y855.607 I-1.587 J0.
G1 X978.778
G2 X977.19 Y857.194 I0. J1.587
G1 Y1170.48
G2 X978.778 Y1172.068 I1.588 J0.
G1 X983.19
Y1174.98
G2 X983.591 Y1176.034 I1.588 J0.
G3 X983.564 Y1176.482 I-0.237 J0.211
G1 X983.327 Y1176.693
X983.274 Y1176.74 Z-0.492
X983.224 Y1176.784 Z-0.469
X983.179 Y1176.824 Z-0.431
X983.141 Y1176.858 Z-0.38
X983.113 Y1176.883 Z-0.32
X983.095 Y1176.898 Z-0.253
X983.089 Y1176.904 Z-0.183
G0 Z20.
X1090.414 Y852.399
G1 Z15.635 F1000.
Z7.317
X1090.413 Y852.391 Z7.247 F1800.
X1090.407 Y852.368 Z7.18
X1090.398 Y852.331 Z7.12
X1090.386 Y852.283 Z7.069
X1090.371 Y852.224 Z7.031
X1090.355 Y852.159 Z7.008
X1090.338 Y852.09 Z7.
X1090.261 Y851.782
G3 X1090.493 Y851.398 I0.308 J-0.077
G2 X1091.698 Y849.857 I-0.383 J-1.541
G1 Y435.357
G2 X1090.11 Y433.77 I-1.588 J0.
G1 X963.861
G2 X962.273 Y435.357 I0. J1.587
G1 Y849.857
G2 X963.861 Y851.445 I1.588 J0.
G1 X1090.11
G2 X1090.493 Y851.398 I0. J-1.588
G3 X1090.878 Y851.629 I0.077 J0.308
G1 X1090.954 Y851.937
X1090.971 Y852.006 Z7.008
X1090.987 Y852.071 Z7.031
X1091.002 Y852.129 Z7.069
X1091.014 Y852.178 Z7.12
X1091.023 Y852.215 Z7.18
X1091.029 Y852.238 Z7.247
X1091.031 Y852.245 Z7.317
G0 Z20.
X1098.823 Y849.408
G1 Z15.635 F1000.
Z7.317
G19 G2 Y849.091 Z7. J-0.318 K0. F1800.
G1 Y848.773
G17 G3 X1099.14 Y848.456 I0.318 J0.
G1 X1225.39
G2 X1226.978 Y846.868 I0. J-1.588
G1 Y432.368
G2 X1225.39 Y430.78 I-1.588 J0.
G1 X1099.14
G2 X1097.552 Y432.368 I0. J1.588
G1 Y846.868
G2 X1099.14 Y848.456 I1.588 J0.
G3 X1099.458 Y848.773 I0. J0.318
G1 Y849.091
G19 G3 Y849.408 Z7.317 J0. K0.318
G0 Z20.
X1098.823
G1 Z7.635 F1000.
Z-0.183
G2 Y849.091 Z-0.5 J-0.318 K0. F1800.
G1 Y848.773
G17 G3 X1099.14 Y848.456 I0.318 J0.
G1 X1225.39
G2 X1226.978 Y846.868 I0. J-1.588
G1 Y432.368
G2 X1225.39 Y430.78 I-1.588 J0.
G1 X1099.14
G2 X1097.552 Y432.368 I0. J1.588
G1 Y846.868
G2 X1099.14 Y848.456 I1.588 J0.
G3 X1099.458 Y848.773 I0. J0.318
G1 Y849.091
G19 G3 Y849.408 Z-0.183 J0. K0.317
G0 Z20.
X1089.792 Y852.397
G1 Z7.635 F1000.
Z-0.183
G2 Y852.08 Z-0.5 J-0.317 K0. F1800.
G1 Y851.762
G17 G3 X1090.11 Y851.445 I0.318 J0.
G2 X1091.698 Y849.857 I0. J-1.588
G1 Y435.357
G2 X1090.11 Y433.77 I-1.588 J0.
G1 X963.861
G2 X962.273 Y435.357 I0. J1.587
G1 Y849.857
G2 X963.861 Y851.445 I1.588 J0.
G1 X1090.11
G3 X1090.427 Y851.762 I0. J0.318
G1 Y852.08
G19 G3 Y852.397 Z-0.183 J0. K0.317
G0 Z20.
X950.345 Y497.68
G1 Z15.635 F1000.
Z7.317
X950.339 Y497.674 Z7.247 F1800.
X950.321 Y497.659 Z7.18
X950.292 Y497.635 Z7.12
X950.254 Y497.602 Z7.069
X950.208 Y497.563 Z7.031
X950.157 Y497.52 Z7.008
X950.103 Y497.474 Z7.
X949.861 Y497.269
G17 G3 X949.824 Y496.821 I0.205 J-0.242
G2 X950.201 Y495.794 I-1.21 J-1.027
G1 Y184.794
G2 X948.614 Y183.206 I-1.587 J0.
G1 X898.744
X7.614
G2 X6.026 Y184.794 I0. J1.588
G1 Y489.794
Y495.794
G2 X7.614 Y497.382 I1.587 J0.
G1 X948.614
G2 X949.824 Y496.821 I0. J-1.587
G3 X950.272 Y496.785 I0.242 J0.205
G1 X950.514 Y496.99
X950.568 Y497.036 Z7.008
X950.619 Y497.079 Z7.031
X950.665 Y497.118 Z7.069
X950.703 Y497.151 Z7.12
X950.732 Y497.175 Z7.18
X950.75 Y497.19 Z7.247
X950.756 Y497.195 Z7.317
G0 Z20.
X950.345 Y497.68
G1 Z7.635 F1000.
Z-0.183
X950.339 Y497.674 Z-0.253 F1800.
X950.321 Y497.659 Z-0.32
X950.292 Y497.635 Z-0.38
X950.254 Y497.602 Z-0.431
X950.208 Y497.563 Z-0.469
X950.157 Y497.52 Z-0.492
X950.103 Y497.474 Z-0.5
X949.861 Y497.269
G3 X949.824 Y496.821 I0.205 J-0.242
G2 X950.201 Y495.794 I-1.21 J-1.027
G1 Y184.794
G2 X948.614 Y183.206 I-1.587 J0.
G1 X898.744
X7.614
G2 X6.026 Y184.794 I0. J1.588
G1 Y489.794
Y495.794
G2 X7.614 Y497.382 I1.587 J0.
G1 X948.614
G2 X949.824 Y496.821 I0. J-1.587
G3 X950.272 Y496.785 I0.242 J0.205
G1 X950.514 Y496.99
X950.568 Y497.036 Z-0.492
X950.619 Y497.079 Z-0.469
X950.665 Y497.118 Z-0.431
X950.703 Y497.151 Z-0.38
X950.732 Y497.175 Z-0.32
X950.75 Y497.19 Z-0.253
X950.756 Y497.195 Z-0.183
G0 Z20.
X963.611 Y418.459
G1 Z15.635 F1000.
Z7.317
X963.615 Y418.452 Z7.247 F1800.
X963.628 Y418.432 Z7.18
X963.648 Y418.4 Z7.12
X963.676 Y418.358 Z7.069
X963.709 Y418.308 Z7.031
X963.745 Y418.251 Z7.008
X963.784 Y418.192 Z7.
X963.956 Y417.926
G3 X964.395 Y417.832 I0.266 J0.173
G2 X965.259 Y418.087 I0.864 J-1.332
G1 X1091.51
G2 X1093.098 Y416.5 I0. J-1.587
G1 Y2.
G2 X1091.51 Y0.412 I-1.588 J0.
G1 X965.259
G2 X963.672 Y2. I0. J1.588
G1 Y416.5
G2 X964.395 Y417.832 I1.587 J0.
G3 X964.489 Y418.271 I-0.173 J0.266
G1 X964.316 Y418.538
X964.278 Y418.597 Z7.008
X964.241 Y418.653 Z7.031
X964.209 Y418.704 Z7.069
X964.181 Y418.746 Z7.12
X964.161 Y418.778 Z7.18
X964.148 Y418.797 Z7.247
X964.144 Y418.804 Z7.317
G0 Z20.
X963.611 Y418.459
G1 Z7.635 F1000.
Z-0.183
X963.615 Y418.452 Z-0.253 F1800.
X963.628 Y418.432 Z-0.32
X963.648 Y418.4 Z-0.38
X963.676 Y418.358 Z-0.431
X963.709 Y418.308 Z-0.469
X963.745 Y418.251 Z-0.492
X963.784 Y418.192 Z-0.5
X963.956 Y417.926
G3 X964.395 Y417.832 I0.266 J0.173
G2 X965.259 Y418.087 I0.864 J-1.332
G1 X1091.51
G2 X1093.098 Y416.5 I0. J-1.587
G1 Y2.
G2 X1091.51 Y0.412 I-1.588 J0.
G1 X965.259
G2 X963.672 Y2. I0. J1.588
G1 Y416.5
G2 X964.395 Y417.832 I1.587 J0.
G3 X964.489 Y418.271 I-0.173 J0.266
G1 X964.316 Y418.538
X964.278 Y418.597 Z-0.492
X964.241 Y418.653 Z-0.469
X964.209 Y418.704 Z-0.431
X964.181 Y418.746 Z-0.38
X964.161 Y418.778 Z-0.32
X964.148 Y418.797 Z-0.253
X964.144 Y418.804 Z-0.183
G0 Z20.
X1097.548 Y419.029
G1 Z15.635 F1000.
Z7.317
X1097.552 Y419.022 Z7.247 F1800.
X1097.563 Y419.001 Z7.18
X1097.581 Y418.968 Z7.12
X1097.606 Y418.924 Z7.069
X1097.635 Y418.871 Z7.031
X1097.667 Y418.812 Z7.008
X1097.701 Y418.75 Z7.
X1097.854 Y418.472
G3 X1098.285 Y418.347 I0.278 J0.153
G2 X1099.05 Y418.543 I0.765 J-1.391
G1 X1099.14
X1225.3
G2 X1226.887 Y416.956 I0. J-1.587
G1 Y2.456
G2 X1225.3 Y0.868 I-1.587 J0.
G1 X1099.05
G2 X1097.463 Y2.456 I0. J1.587
G1 Y416.956
G2 X1098.285 Y418.347 I1.588 J0.
G3 X1098.41 Y418.778 I-0.153 J0.278
G1 X1098.257 Y419.056
X1098.223 Y419.118 Z7.008
X1098.191 Y419.177 Z7.031
X1098.162 Y419.23 Z7.069
X1098.138 Y419.274 Z7.12
X1098.119 Y419.307 Z7.18
X1098.108 Y419.328 Z7.247
X1098.104 Y419.335 Z7.317
G0 Z20.
X1097.548 Y419.029
G1 Z7.635 F1000.
Z-0.183
X1097.552 Y419.022 Z-0.253 F1800.
X1097.563 Y419.001 Z-0.32
X1097.581 Y418.968 Z-0.38
X1097.606 Y418.924 Z-0.431
X1097.635 Y418.871 Z-0.469
X1097.667 Y418.812 Z-0.492
X1097.701 Y418.75 Z-0.5
X1097.854 Y418.472
G3 X1098.285 Y418.347 I0.278 J0.153
G2 X1099.05 Y418.543 I0.765 J-1.391
G1 X1099.14
X1225.3
G2 X1226.887 Y416.956 I0. J-1.587
G1 Y2.456
G2 X1225.3 Y0.868 I-1.587 J0.
G1 X1099.05
G2 X1097.463 Y2.456 I0. J1.587
G1 Y416.956
G2 X1098.285 Y418.347 I1.588 J0.
G3 X1098.41 Y418.778 I-0.153 J0.278
G1 X1098.257 Y419.056
X1098.223 Y419.118 Z-0.492
X1098.191 Y419.177 Z-0.469
X1098.162 Y419.23 Z-0.431
X1098.138 Y419.274 Z-0.38
X1098.119 Y419.307 Z-0.32
X1098.108 Y419.328 Z-0.253
X1098.104 Y419.335 Z-0.183
G0 Z20.
X936.978 Y157.704
G1 Z15.635 F1000.
Z7.317
X936.973 Y157.699 Z7.247 F1800.
X936.955 Y157.683 Z7.18
X936.928 Y157.657 Z7.12
X936.891 Y157.623 Z7.069
X936.847 Y157.582 Z7.031
X936.798 Y157.536 Z7.008
X936.746 Y157.488 Z7.
X936.514 Y157.272
G3 X936.498 Y156.823 I0.216 J-0.232
G2 X950.331 Y121.667 I-37.754 J-35.156
G1 Y2.667
G2 X948.744 Y1.079 I-1.587 J0.
G1 X98.744
G2 X97.157 Y2.667 I0. J1.587
G1 Y9.368
G2 X97.622 Y10.491 I1.588 J0.
G1 X97.632 Y10.512
X97.629 Y10.535
X97.612 Y10.551
X97.589 Y10.555
X97.568 Y10.544
G2 X96.446 Y10.079 I-1.123 J1.123
G1 X7.744
G2 X6.157 Y11.667 I0. J1.587
G1 Y141.667
G2 X37.744 Y173.255 I31.588 J0.
G1 X898.744
G2 X936.498 Y156.823 I0. J-51.588
G3 X936.946 Y156.807 I0.232 J0.216
G1 X937.179 Y157.023
X937.23 Y157.071 Z7.008
X937.28 Y157.117 Z7.031
X937.324 Y157.158 Z7.069
X937.36 Y157.192 Z7.12
X937.388 Y157.218 Z7.18
X937.405 Y157.234 Z7.247
X937.411 Y157.24 Z7.317
G0 Z20.
X936.978 Y157.704
G1 Z7.635 F1000.
Z-0.183
X936.973 Y157.699 Z-0.253 F1800.
X936.955 Y157.683 Z-0.32
X936.928 Y157.657 Z-0.38
X936.891 Y157.623 Z-0.431
X936.847 Y157.582 Z-0.469
X936.798 Y157.536 Z-0.492
X936.746 Y157.488 Z-0.5
X936.514 Y157.272
G3 X936.498 Y156.823 I0.216 J-0.232
G2 X950.331 Y121.667 I-37.754 J-35.156
G1 Y2.667
G2 X948.744 Y1.079 I-1.587 J0.
G1 X98.744
G2 X97.157 Y2.667 I0. J1.587
G1 Y9.368
G2 X97.622 Y10.491 I1.588 J0.
G1 X97.632 Y10.512
X97.629 Y10.535
X97.612 Y10.551
X97.589 Y10.555
X97.568 Y10.544
G2 X96.446 Y10.079 I-1.123 J1.123
G1 X7.744
G2 X6.157 Y11.667 I0. J1.587
G1 Y141.667
G2 X37.744 Y173.255 I31.588 J0.
G1 X898.744
G2 X936.498 Y156.823 I0. J-51.588
G3 X936.946 Y156.807 I0.232 J0.216
G1 X937.179 Y157.023
X937.23 Y157.071 Z-0.492
X937.28 Y157.117 Z-0.469
X937.324 Y157.158 Z-0.431
X937.36 Y157.192 Z-0.38
X937.388 Y157.218 Z-0.32
X937.405 Y157.234 Z-0.253
X937.411 Y157.24 Z-0.183
G0 Z20.
X1044.494 Y1704.879
G1 Z15.635 F1000.
Z7.317
X1044.487 Y1704.883 Z7.247 F1800.
X1044.467 Y1704.894 Z7.18
X1044.434 Y1704.913 Z7.12
X1044.39 Y1704.938 Z7.069
X1044.338 Y1704.968 Z7.031
X1044.28 Y1705.001 Z7.008
X1044.218 Y1705.036 Z7.
X1043.943 Y1705.193
G3 X1043.51 Y1705.074 I-0.157 J-0.276
G2 X1042.13 Y1704.272 I-1.38 J0.786
G1 X896.378
G2 X894.791 Y1705.86 I0. J1.588
G1 Y2205.86
G2 X896.378 Y2207.448 I1.587 J0.
G1 X1042.13
G2 X1043.718 Y2205.86 I0. J-1.587
G1 Y1898.31
Y1705.86
G2 X1043.51 Y1705.074 I-1.588 J0.
G3 X1043.628 Y1704.641 I0.276 J-0.157
G1 X1043.904 Y1704.484
X1043.966 Y1704.449 Z7.008
X1044.024 Y1704.416 Z7.031
X1044.076 Y1704.386 Z7.069
X1044.12 Y1704.361 Z7.12
X1044.153 Y1704.343 Z7.18
X1044.173 Y1704.331 Z7.247
X1044.18 Y1704.327 Z7.317
G0 Z20.
X1044.67 Y1706.177
G1 Z7.635 F1000.
Z-0.183
G18 G3 X1044.353 Z-0.5 I-0.318 K0. F1800.
G1 X1044.035
G17 G3 X1043.718 Y1705.86 I0. J-0.318
G2 X1042.13 Y1704.272 I-1.588 J0.
G1 X896.378
G2 X894.791 Y1705.86 I0. J1.588
G1 Y2205.86
G2 X896.378 Y2207.448 I1.587 J0.
G1 X1042.13
G2 X1043.718 Y2205.86 I0. J-1.587
G1 Y1898.31
Y1705.86
G3 X1044.035 Y1705.542 I0.318 J0.
G1 X1044.353
G18 G2 X1044.67 Z-0.183 I0. K0.317
G0 Z20.
X1068.93 Y2217.303
G1 Z15.635 F1000.
Z7.317
G2 X1069.248 Z7. I0.318 K0. F1800.
G1 X1069.565
G17 G3 X1069.882 Y2217.62 I0. J0.317
G1 Y2398.31
G2 X1071.47 Y2399.897 I1.588 J0.
G1 X1217.22
G2 X1218.807 Y2398.31 I0. J-1.587
G1 Y1898.31
G2 X1217.22 Y1896.723 I-1.588 J0.
G1 X1071.47
G2 X1069.882 Y1898.31 I0. J1.588
G1 Y2217.62
G3 X1069.565 Y2217.938 I-0.318 J0.
G1 X1069.248
G18 G3 X1068.93 Z7.317 I0. K0.318
G0 Z20.
Y2217.303
G1 Z7.635 F1000.
Z-0.183
G2 X1069.248 Z-0.5 I0.318 K0. F1800.
G1 X1069.565
G17 G3 X1069.882 Y2217.62 I0. J0.317
G1 Y2398.31
G2 X1071.47 Y2399.897 I1.588 J0.
G1 X1217.22
G2 X1218.807 Y2398.31 I0. J-1.587
G1 Y1898.31
G2 X1217.22 Y1896.723 I-1.588 J0.
G1 X1071.47
G2 X1069.882 Y1898.31 I0. J1.588
G1 Y2217.62
G3 X1069.565 Y2217.938 I-0.318 J0.
G1 X1069.248
G18 G3 X1068.93 Z-0.183 I0. K0.317
G0 Z20.
X1051.927 Y2231.891
G1 Z15.635 F1000.
Z7.317
X1051.926 Y2231.899 Z7.247 F1800.
X1051.921 Y2231.922 Z7.18
X1051.914 Y2231.959 Z7.12
X1051.904 Y2232.008 Z7.069
X1051.892 Y2232.067 Z7.031
X1051.879 Y2232.133 Z7.008
X1051.865 Y2232.202 Z7.
X1051.803 Y2232.514
G17 G3 X1051.43 Y2232.763 I-0.311 J-0.062
G2 X1051.12 Y2232.732 I-0.31 J1.557
G1 X3.123
G2 X1.536 Y2234.32 I0. J1.588
G1 Y2353.32
G2 X53.123 Y2404.907 I51.588 J0.
G1 X1021.12
G2 X1052.708 Y2373.32 I0. J-31.587
G1 Y2234.32
G2 X1051.43 Y2232.763 I-1.588 J0.
G3 X1051.18 Y2232.39 I0.062 J-0.311
G1 X1051.242 Y2232.078
X1051.256 Y2232.009 Z7.008
X1051.269 Y2231.943 Z7.031
X1051.281 Y2231.884 Z7.069
X1051.291 Y2231.835 Z7.119
X1051.298 Y2231.798 Z7.18
X1051.303 Y2231.775 Z7.247
X1051.304 Y2231.767 Z7.317
G0 Z20.
X1051.927 Y2231.891
G1 Z7.635 F1000.
Z-0.183
X1051.926 Y2231.899 Z-0.253 F1800.
X1051.921 Y2231.922 Z-0.32
X1051.914 Y2231.959 Z-0.38
X1051.904 Y2232.008 Z-0.431
X1051.892 Y2232.067 Z-0.469
X1051.879 Y2232.133 Z-0.492
X1051.865 Y2232.202 Z-0.5
X1051.803 Y2232.514
G3 X1051.43 Y2232.763 I-0.311 J-0.062
G2 X1051.12 Y2232.732 I-0.31 J1.557
G1 X3.123
G2 X1.536 Y2234.32 I0. J1.588
G1 Y2353.32
G2 X53.123 Y2404.907 I51.588 J0.
G1 X1021.12
G2 X1052.708 Y2373.32 I0. J-31.587
G1 Y2234.32
G2 X1051.43 Y2232.763 I-1.588 J0.
G3 X1051.18 Y2232.39 I0.062 J-0.311
G1 X1051.242 Y2232.078
X1051.256 Y2232.009 Z-0.492
X1051.269 Y2231.943 Z-0.469
X1051.281 Y2231.884 Z-0.431
X1051.291 Y2231.835 Z-0.381
X1051.298 Y2231.798 Z-0.32
X1051.303 Y2231.775 Z-0.253
X1051.304 Y2231.767 Z-0.183
G0 Z30.

M9
M5
M30
